( pcb2gcode 2.0.0 )
( Software-independent Gcode )

G94 ( Millimeters per minute feed rate. )
G21 ( Units == Millimeters. )

G90 ( Absolute coordinates. )
G00 S10000 ( RPM spindle speed. )
G64 P0.01016 ( set maximum deviation from commanded toolpath )
G01 F600.00000 ( Feedrate. )


G00 Z10.00000 (Retract to tool change height)
T0
M5      (Spindle stop.)
G04 P1.00000 (Wait for spindle to stop)
(MSG, Change tool bit to mill diameter 0.20000mm)
M6      (Tool change.)
M0      (Temporary machine stop.)
M3 ( Spindle on clockwise. )
G04 P1.00000 (Wait for spindle to get up to speed)
G04 P0 ( dwell for no time -- G64 should not smooth over this point )
G00 Z5.00000 ( retract )

G00 X-3.45201 Y14.93261 ( rapid move to begin. )
G01 F300.00000
G01 Z-0.05000
G04 P0 ( dwell for no time -- G64 should not smooth over this point )
G01 F600.00000
G01 X-3.45201 Y14.93261
G01 X-3.45201 Y37.66340
G01 X-3.46768 Y37.82240
G01 X-3.51389 Y37.97473
G01 X-3.58889 Y38.11506
G01 X-3.69026 Y38.23858
G01 X-5.59539 Y40.14371
G01 X-5.71891 Y40.24508
G01 X-5.85930 Y40.32011
G01 X-6.01160 Y40.36632
G01 X-6.17060 Y40.38199
G01 X-6.36252 Y40.37802
G01 X-6.47261 Y40.40675
G01 X-6.55442 Y40.48547
G01 X-6.62912 Y40.64780
G01 X-6.68010 Y40.70990
G01 X-6.74220 Y40.76088
G01 X-6.89000 Y40.82212
G01 X-8.65884 Y40.83108
G01 X-8.82688 Y40.79878
G01 X-8.95988 Y40.70993
G01 X-9.01085 Y40.64780
G01 X-9.07207 Y40.50002
G01 X-9.08106 Y40.40886
G01 X-9.07207 Y38.64000
G01 X-9.01088 Y38.49225
G01 X-8.95988 Y38.43012
G01 X-8.89775 Y38.37912
G01 X-8.67730 Y38.26932
G01 X-8.62114 Y38.18547
G01 X-8.60704 Y38.09048
G01 X-8.64674 Y37.97750
G01 X-8.74842 Y37.87739
G01 X-8.89630 Y37.67912
G01 X-9.01715 Y37.41031
G01 X-9.00326 Y37.38400
G01 X-8.69897 Y37.38400
G01 X-8.58197 Y37.59655
G01 X-8.44753 Y37.74260
G01 X-8.29498 Y37.85273
G01 X-8.10344 Y37.93622
G01 X-7.92963 Y37.97318
G01 X-7.73115 Y37.97536
G01 X-7.51665 Y37.92977
G01 X-7.34499 Y37.85273
G01 X-7.19244 Y37.74260
G01 X-7.05142 Y37.58842
G01 X-6.94101 Y37.38400
G01 X-6.63672 Y37.38403
G01 X-6.62282 Y37.41031
G01 X-6.63545 Y37.45189
G01 X-6.74367 Y37.67915
G01 X-6.89158 Y37.87742
G01 X-6.98840 Y37.97031
G01 X-7.02577 Y38.04752
G01 X-7.03174 Y38.13401
G01 X-7.00481 Y38.21641
G01 X-6.94898 Y38.28273
G01 X-6.74220 Y38.37915
G01 X-6.54533 Y38.57074
G01 X-6.43542 Y38.59891
G01 X-6.34416 Y38.57950
G01 X-6.27538 Y38.53271
G01 X-5.13847 Y37.39581
G01 X-5.08927 Y37.32218
G01 X-5.07390 Y37.25482
G01 X-5.07634 Y15.31643
G01 X-5.13850 Y15.20020
G01 X-14.74386 Y5.60903
G01 X-14.85270 Y5.58002
G01 X-40.67927 Y5.58002
G01 X-40.76156 Y5.59552
G01 X-40.82049 Y5.63067
G01 X-43.50868 Y8.31538
G01 X-43.56514 Y8.41289
G01 X-43.56514 Y8.53900
G01 X-43.53695 Y8.60207
G01 X-43.47832 Y8.66186
G01 X-43.36771 Y8.70102
G01 X-43.16115 Y8.70293
G01 X-42.99308 Y8.73524
G01 X-42.92224 Y8.77311
G01 X-42.80911 Y8.88624
G01 X-42.74790 Y9.03404
G01 X-42.73890 Y12.10280
G01 X-42.77121 Y12.27092
G01 X-42.86009 Y12.40391
G01 X-42.99306 Y12.49276
G01 X-43.16115 Y12.52510
G01 X-46.22996 Y12.51610
G01 X-46.37776 Y12.45489
G01 X-46.49086 Y12.34178
G01 X-46.55210 Y12.19396
G01 X-46.56107 Y11.91580
G01 X-46.57834 Y11.82893
G01 X-46.62416 Y11.75883
G01 X-46.67037 Y11.72200
G01 X-46.78807 Y11.68880
G01 X-46.87494 Y11.70607
G01 X-46.94857 Y11.75527
G01 X-47.33150 Y12.13820
G01 X-47.39447 Y12.25926
G01 X-47.39800 Y19.59727
G01 X-47.38070 Y19.68416
G01 X-47.33150 Y19.75782
G01 X-46.94857 Y20.14075
G01 X-46.87494 Y20.18995
G01 X-46.78807 Y20.20722
G01 X-46.67037 Y20.17403
G01 X-46.62416 Y20.13720
G01 X-46.57834 Y20.06709
G01 X-46.56107 Y19.98022
G01 X-46.55210 Y19.70207
G01 X-46.49086 Y19.55424
G01 X-46.37776 Y19.44113
G01 X-46.22996 Y19.37992
G01 X-43.16115 Y19.37093
G01 X-43.07002 Y19.37992
G01 X-42.92224 Y19.44113
G01 X-42.86009 Y19.49211
G01 X-42.77121 Y19.62513
G01 X-42.73890 Y19.79323
G01 X-42.73890 Y22.77080
G01 X-42.74790 Y22.86201
G01 X-42.80911 Y23.00978
G01 X-42.92222 Y23.12289
G01 X-42.99311 Y23.16079
G01 X-43.16115 Y23.19310
G01 X-46.13885 Y23.19310
G01 X-46.30689 Y23.16079
G01 X-46.43986 Y23.07191
G01 X-46.52874 Y22.93892
G01 X-46.56110 Y22.77057
G01 X-46.56546 Y22.27247
G01 X-46.62096 Y22.16376
G01 X-46.66610 Y22.12564
G01 X-46.74288 Y22.09455
G01 X-47.10842 Y22.07832
G01 X-47.26071 Y22.03211
G01 X-47.40105 Y21.95711
G01 X-47.52454 Y21.85574
G01 X-48.77971 Y20.60059
G01 X-48.88106 Y20.47710
G01 X-48.95609 Y20.33671
G01 X-49.00229 Y20.18442
G01 X-49.01796 Y20.02541
G01 X-49.01796 Y11.87061
G01 X-49.00229 Y11.71161
G01 X-48.95609 Y11.55931
G01 X-48.88106 Y11.41893
G01 X-48.77971 Y11.29543
G01 X-47.52454 Y10.04029
G01 X-47.40107 Y9.93894
G01 X-47.26066 Y9.86391
G01 X-47.10842 Y9.81771
G01 X-46.74288 Y9.80148
G01 X-46.62416 Y9.73597
G01 X-46.57834 Y9.66589
G01 X-46.56298 Y9.59853
G01 X-46.55210 Y9.03407
G01 X-46.52876 Y8.95713
G01 X-46.43989 Y8.82411
G01 X-46.30687 Y8.73524
G01 X-46.22996 Y8.71192
G01 X-45.66547 Y8.70102
G01 X-45.59811 Y8.68566
G01 X-45.52803 Y8.63984
G01 X-45.46252 Y8.52112
G01 X-45.44629 Y8.15558
G01 X-45.40009 Y8.00329
G01 X-45.32506 Y7.86293
G01 X-45.22368 Y7.73943
G01 X-41.68257 Y4.19829
G01 X-41.55907 Y4.09694
G01 X-41.41869 Y4.02189
G01 X-41.26636 Y3.97571
G01 X-41.10739 Y3.96004
G01 X-14.42456 Y3.96004
G01 X-14.26561 Y3.97571
G01 X-14.11328 Y4.02191
G01 X-13.97292 Y4.09694
G01 X-13.84943 Y4.19829
G01 X-3.69026 Y14.35743
G01 X-3.58892 Y14.48092
G01 X-3.51389 Y14.62131
G01 X-3.46768 Y14.77363
G01 X-3.45201 Y14.93261
G04 P0 ( dwell for no time -- G64 should not smooth over this point )
G00 Z5.00000 ( retract )

G00 X-3.76398 Y14.93200 ( rapid move to begin. )
G01 F300.00000
G01 Z-0.05000
G04 P0 ( dwell for no time -- G64 should not smooth over this point )
G01 F600.00000
G01 X-3.76398 Y14.93200
G01 X-3.77215 Y37.75184
G01 X-3.80624 Y37.86424
G01 X-3.91043 Y38.01758
G01 X-5.82371 Y39.93015
G01 X-5.96976 Y40.02776
G01 X-6.08216 Y40.06185
G01 X-6.86999 Y40.07002
G01 X-6.87192 Y40.43952
G01 X-6.89928 Y40.49072
G01 X-6.95048 Y40.51808
G01 X-8.66999 Y40.52001
G01 X-8.74070 Y40.49072
G01 X-8.76999 Y40.42001
G01 X-8.76999 Y38.72001
G01 X-8.74070 Y38.64930
G01 X-8.66999 Y38.62001
G01 X-6.95048 Y38.62194
G01 X-6.89928 Y38.64930
G01 X-6.87192 Y38.70051
G01 X-6.86999 Y39.07003
G01 X-6.37710 Y39.07000
G01 X-4.76400 Y37.45690
G01 X-4.76400 Y15.13911
G01 X-14.63109 Y5.27202
G01 X-40.90088 Y5.27202
G01 X-44.14998 Y8.52112
G01 X-44.14998 Y9.01400
G01 X-43.14998 Y9.01400
G01 X-43.07926 Y9.04331
G01 X-43.05191 Y9.09450
G01 X-43.04998 Y12.11402
G01 X-43.07926 Y12.18474
G01 X-43.14998 Y12.21402
G01 X-46.18825 Y12.20640
G01 X-46.23313 Y12.16957
G01 X-46.25000 Y12.11402
G01 X-46.25000 Y11.11400
G01 X-46.74288 Y11.11400
G01 X-47.70598 Y12.07712
G01 X-47.70598 Y19.81891
G01 X-46.74288 Y20.78200
G01 X-46.25000 Y20.78200
G01 X-46.25000 Y19.78200
G01 X-46.23313 Y19.72645
G01 X-46.18825 Y19.68962
G01 X-43.14998 Y19.68200
G01 X-43.09443 Y19.69887
G01 X-43.06684 Y19.72645
G01 X-43.04998 Y19.78200
G01 X-43.05760 Y22.82027
G01 X-43.09443 Y22.86516
G01 X-43.14998 Y22.88202
G01 X-46.18825 Y22.87440
G01 X-46.23313 Y22.83757
G01 X-46.25000 Y22.78202
G01 X-46.25000 Y21.78202
G01 X-46.95980 Y21.78154
G01 X-47.13209 Y21.74725
G01 X-47.23564 Y21.69191
G01 X-48.55954 Y20.37956
G01 X-48.66373 Y20.22622
G01 X-48.69782 Y20.11385
G01 X-48.70600 Y11.87000
G01 X-48.69398 Y11.76294
G01 X-48.66373 Y11.66980
G01 X-48.55954 Y11.51646
G01 X-47.30354 Y10.26046
G01 X-47.21936 Y10.19322
G01 X-47.13209 Y10.14877
G01 X-46.95980 Y10.11448
G01 X-46.25000 Y10.11400
G01 X-46.25000 Y9.11400
G01 X-46.22071 Y9.04331
G01 X-46.15000 Y9.01400
G01 X-45.15000 Y9.01400
G01 X-45.14182 Y8.22617
G01 X-45.10773 Y8.11380
G01 X-45.01012 Y7.96773
G01 X-41.46154 Y4.41846
G01 X-41.30820 Y4.31427
G01 X-41.19583 Y4.28018
G01 X-14.42400 Y4.27200
G01 X-14.31691 Y4.28402
G01 X-14.15461 Y4.35122
G01 X-14.07043 Y4.41846
G01 X-3.91043 Y14.57846
G01 X-3.80624 Y14.73180
G01 X-3.77599 Y14.82494
G01 X-3.76398 Y14.93200
G04 P0 ( dwell for no time -- G64 should not smooth over this point )
G00 Z5.00000 ( retract )

G00 X-6.56199 Y21.66610 ( rapid move to begin. )
G01 F300.00000
G01 Z-0.05000
G04 P0 ( dwell for no time -- G64 should not smooth over this point )
G01 F600.00000
G01 X-6.56199 Y21.66610
G01 X-6.56199 Y21.91393
G01 X-6.61032 Y22.15693
G01 X-6.70517 Y22.38591
G01 X-6.84286 Y22.59195
G01 X-7.01843 Y22.76754
G01 X-7.20865 Y22.89988
G01 X-7.25747 Y22.97313
G01 X-7.27474 Y23.06000
G01 X-7.25747 Y23.14689
G01 X-7.20865 Y23.22015
G01 X-7.01843 Y23.35248
G01 X-6.84286 Y23.52807
G01 X-6.70517 Y23.73414
G01 X-6.61032 Y23.96310
G01 X-6.56199 Y24.20610
G01 X-6.56199 Y24.45393
G01 X-6.61032 Y24.69693
G01 X-6.70517 Y24.92588
G01 X-6.84284 Y25.13193
G01 X-7.01843 Y25.30754
G01 X-7.20865 Y25.43988
G01 X-7.25747 Y25.51313
G01 X-7.27474 Y25.60000
G01 X-7.25747 Y25.68689
G01 X-7.20865 Y25.76015
G01 X-7.01843 Y25.89248
G01 X-6.84284 Y26.06810
G01 X-6.70517 Y26.27414
G01 X-6.61032 Y26.50310
G01 X-6.56199 Y26.74610
G01 X-6.56199 Y26.99393
G01 X-6.61032 Y27.23693
G01 X-6.70517 Y27.46588
G01 X-6.84284 Y27.67195
G01 X-7.01843 Y27.84754
G01 X-7.20865 Y27.97988
G01 X-7.25747 Y28.05313
G01 X-7.27474 Y28.14000
G01 X-7.25747 Y28.22689
G01 X-7.20865 Y28.30015
G01 X-7.01843 Y28.43248
G01 X-6.84286 Y28.60807
G01 X-6.70517 Y28.81412
G01 X-6.61032 Y29.04310
G01 X-6.56199 Y29.28610
G01 X-6.56199 Y29.53393
G01 X-6.61032 Y29.77693
G01 X-6.70517 Y30.00591
G01 X-6.84284 Y30.21195
G01 X-7.01843 Y30.38754
G01 X-7.20865 Y30.51988
G01 X-7.25747 Y30.59313
G01 X-7.27474 Y30.68000
G01 X-7.25747 Y30.76689
G01 X-7.20865 Y30.84015
G01 X-7.01843 Y30.97248
G01 X-6.84284 Y31.14807
G01 X-6.70517 Y31.35414
G01 X-6.61032 Y31.58310
G01 X-6.56199 Y31.82610
G01 X-6.56199 Y32.07393
G01 X-6.61032 Y32.31693
G01 X-6.70517 Y32.54588
G01 X-6.84284 Y32.75193
G01 X-7.01843 Y32.92754
G01 X-7.20865 Y33.05988
G01 X-7.25747 Y33.13313
G01 X-7.27474 Y33.22000
G01 X-7.25747 Y33.30689
G01 X-7.20865 Y33.38015
G01 X-7.01845 Y33.51248
G01 X-6.84284 Y33.68807
G01 X-6.70517 Y33.89414
G01 X-6.61032 Y34.12310
G01 X-6.56199 Y34.36610
G01 X-6.56199 Y34.61393
G01 X-6.61032 Y34.85693
G01 X-6.70517 Y35.08588
G01 X-6.84284 Y35.29195
G01 X-7.01845 Y35.46757
G01 X-7.23964 Y35.63292
G01 X-7.27677 Y35.71573
G01 X-7.27845 Y35.80648
G01 X-7.25731 Y35.86856
G01 X-7.21548 Y35.92589
G01 X-7.07466 Y36.01784
G01 X-6.89099 Y36.18339
G01 X-6.74367 Y36.38090
G01 X-6.62282 Y36.64971
G01 X-6.63672 Y36.67600
G01 X-6.94101 Y36.67600
G01 X-7.05800 Y36.46348
G01 X-7.19244 Y36.31743
G01 X-7.34499 Y36.20729
G01 X-7.53654 Y36.12380
G01 X-7.71035 Y36.08685
G01 X-7.90882 Y36.08466
G01 X-8.12333 Y36.13026
G01 X-8.29498 Y36.20729
G01 X-8.44753 Y36.31743
G01 X-8.58855 Y36.47161
G01 X-8.69897 Y36.67600
G01 X-9.00326 Y36.67600
G01 X-9.01715 Y36.64971
G01 X-9.00455 Y36.60816
G01 X-8.89630 Y36.38090
G01 X-8.74898 Y36.18339
G01 X-8.56600 Y36.01842
G01 X-8.43938 Y35.93943
G01 X-8.38266 Y35.86856
G01 X-8.36153 Y35.80648
G01 X-8.35970 Y35.73554
G01 X-8.37758 Y35.67245
G01 X-8.42632 Y35.60242
G01 X-8.62206 Y35.46719
G01 X-8.75955 Y35.33590
G01 X-8.84075 Y35.30239
G01 X-10.58863 Y35.29802
G01 X-10.67565 Y35.31530
G01 X-10.74933 Y35.36455
G01 X-12.80043 Y37.42065
G01 X-12.84072 Y37.53632
G01 X-12.82891 Y37.68542
G01 X-12.82891 Y38.91387
G01 X-12.84270 Y39.05374
G01 X-12.88026 Y39.17760
G01 X-12.94125 Y39.29167
G01 X-13.10033 Y39.46545
G01 X-13.13045 Y39.51991
G01 X-13.14450 Y39.59850
G01 X-13.14448 Y41.89880
G01 X-13.10625 Y42.02491
G01 X-7.50024 Y47.63145
G01 X-7.39889 Y47.75495
G01 X-7.32389 Y47.89528
G01 X-7.27768 Y48.04763
G01 X-7.26201 Y48.20661
G01 X-7.26201 Y55.31742
G01 X-7.27768 Y55.47639
G01 X-7.32389 Y55.62874
G01 X-7.39889 Y55.76908
G01 X-7.50026 Y55.89257
G01 X-9.02343 Y57.41574
G01 X-9.14692 Y57.51708
G01 X-9.28731 Y57.59211
G01 X-9.43961 Y57.63832
G01 X-9.59858 Y57.65399
G01 X-25.62136 Y57.65399
G01 X-25.78037 Y57.63832
G01 X-25.93269 Y57.59211
G01 X-26.07307 Y57.51708
G01 X-26.19657 Y57.41574
G01 X-27.69771 Y55.91460
G01 X-27.79908 Y55.79107
G01 X-27.87409 Y55.65071
G01 X-27.92029 Y55.49839
G01 X-27.93368 Y55.15166
G01 X-27.96825 Y55.04701
G01 X-28.06532 Y54.96344
G01 X-28.23340 Y54.91879
G01 X-28.30426 Y54.88089
G01 X-28.41808 Y54.76690
G01 X-28.47713 Y54.66568
G01 X-28.54488 Y54.61038
G01 X-28.63944 Y54.58417
G01 X-28.74079 Y54.60286
G01 X-28.90385 Y54.72387
G01 X-29.14079 Y54.85051
G01 X-29.39727 Y54.92834
G01 X-29.66400 Y54.95460
G01 X-29.93067 Y54.92834
G01 X-30.18714 Y54.85051
G01 X-30.42351 Y54.72420
G01 X-30.63105 Y54.55387
G01 X-30.79532 Y54.36050
G01 X-30.87248 Y54.31912
G01 X-30.95516 Y54.30975
G01 X-31.08109 Y54.35897
G01 X-31.25371 Y54.55801
G01 X-31.46171 Y54.72496
G01 X-31.70105 Y54.84955
G01 X-31.81398 Y54.88633
G01 X-31.84997 Y54.86875
G01 X-31.84997 Y54.57629
G01 X-31.66895 Y54.49331
G01 X-31.50786 Y54.37627
G01 X-31.34680 Y54.19738
G01 X-31.24248 Y54.01561
G01 X-31.17720 Y53.81645
G01 X-31.15147 Y53.58752
G01 X-31.17449 Y53.27368
G01 X-31.24248 Y53.06441
G01 X-31.34680 Y52.88265
G01 X-31.49232 Y52.71775
G01 X-31.66895 Y52.58671
G01 X-31.84997 Y52.50373
G01 X-31.84997 Y52.21128
G01 X-31.81398 Y52.19370
G01 X-31.70103 Y52.23048
G01 X-31.46174 Y52.35506
G01 X-31.25371 Y52.52202
G01 X-31.08109 Y52.72105
G01 X-30.96969 Y52.76858
G01 X-30.87246 Y52.76091
G01 X-30.79532 Y52.71953
G01 X-30.63105 Y52.52616
G01 X-30.50543 Y52.40680
G01 X-30.47200 Y52.28826
G01 X-30.47200 Y50.02873
G01 X-30.48927 Y49.94186
G01 X-30.53847 Y49.86820
G01 X-34.56447 Y45.84220
G01 X-34.63811 Y45.79300
G01 X-34.70547 Y45.77763
G01 X-34.84268 Y45.80893
G01 X-34.93051 Y45.90700
G01 X-34.95198 Y46.00273
G01 X-34.96368 Y46.31240
G01 X-35.00989 Y46.46470
G01 X-35.08492 Y46.60509
G01 X-35.18626 Y46.72858
G01 X-36.72942 Y48.27174
G01 X-36.85291 Y48.37308
G01 X-36.99327 Y48.44811
G01 X-37.14557 Y48.49432
G01 X-37.30460 Y48.50999
G01 X-42.81328 Y48.50953
G01 X-42.93410 Y48.57229
G01 X-43.16773 Y48.91408
G01 X-43.43372 Y49.18006
G01 X-43.74622 Y49.38885
G01 X-44.09349 Y49.53269
G01 X-44.46209 Y49.60602
G01 X-44.83791 Y49.60602
G01 X-45.20654 Y49.53269
G01 X-45.55388 Y49.38880
G01 X-45.91108 Y49.15172
G01 X-45.97555 Y49.12888
G01 X-46.05927 Y49.12972
G01 X-46.12381 Y49.15439
G01 X-46.17888 Y49.19541
G01 X-46.21548 Y49.24819
G01 X-46.24200 Y49.35235
G01 X-46.24200 Y51.40538
G01 X-46.22470 Y51.49225
G01 X-46.17545 Y51.56596
G01 X-43.97792 Y53.75735
G01 X-43.88665 Y53.79265
G01 X-43.78416 Y53.78422
G01 X-43.69181 Y53.72974
G01 X-43.65170 Y53.67365
G01 X-43.62473 Y53.56987
G01 X-43.62249 Y53.15831
G01 X-43.59620 Y53.13200
G01 X-43.31399 Y53.13200
G01 X-43.31206 Y53.64752
G01 X-43.28470 Y53.69872
G01 X-43.21399 Y53.72801
G01 X-41.49448 Y53.72608
G01 X-41.44328 Y53.69872
G01 X-41.41592 Y53.64752
G01 X-41.41399 Y53.13200
G01 X-41.13177 Y53.13203
G01 X-41.10548 Y53.15829
G01 X-41.10299 Y53.61750
G01 X-41.13522 Y53.78491
G01 X-41.17310 Y53.85577
G01 X-41.28623 Y53.96890
G01 X-41.44206 Y54.03591
G01 X-41.51528 Y54.09293
G01 X-41.55956 Y54.17452
G01 X-41.56906 Y54.24091
G01 X-41.52981 Y54.36748
G01 X-41.38722 Y54.51551
G01 X-41.24917 Y54.72214
G01 X-41.15433 Y54.95110
G01 X-41.10599 Y55.19412
G01 X-41.10599 Y55.44190
G01 X-41.15433 Y55.68493
G01 X-41.24917 Y55.91388
G01 X-41.38684 Y56.11995
G01 X-41.56205 Y56.29514
G01 X-41.76812 Y56.43283
G01 X-41.99702 Y56.52765
G01 X-42.24007 Y56.57601
G01 X-42.48790 Y56.57601
G01 X-42.73095 Y56.52765
G01 X-42.95986 Y56.43283
G01 X-43.16593 Y56.29516
G01 X-43.26857 Y56.19250
G01 X-43.34223 Y56.14330
G01 X-43.42910 Y56.12602
G01 X-43.72450 Y56.11432
G01 X-43.87677 Y56.06811
G01 X-44.01713 Y55.99308
G01 X-44.14063 Y55.89174
G01 X-47.62370 Y52.40866
G01 X-47.72508 Y52.28516
G01 X-47.80011 Y52.14478
G01 X-47.84631 Y51.99248
G01 X-47.86196 Y51.83348
G01 X-47.86196 Y32.05061
G01 X-47.84631 Y31.89161
G01 X-47.80011 Y31.73933
G01 X-47.72508 Y31.59895
G01 X-47.62251 Y31.47398
G01 X-47.40107 Y31.27494
G01 X-47.26071 Y31.19991
G01 X-47.10839 Y31.15371
G01 X-46.74288 Y31.13748
G01 X-46.66193 Y31.10375
G01 X-46.59932 Y31.04114
G01 X-46.56155 Y30.92481
G01 X-46.55210 Y30.37007
G01 X-46.49084 Y30.22222
G01 X-46.37778 Y30.10916
G01 X-46.22993 Y30.04790
G01 X-46.13885 Y30.03893
G01 X-43.07004 Y30.04790
G01 X-42.99308 Y30.07126
G01 X-42.86009 Y30.16011
G01 X-42.77121 Y30.29311
G01 X-42.73888 Y30.46141
G01 X-42.73451 Y30.95955
G01 X-42.70065 Y31.04114
G01 X-42.65318 Y31.09133
G01 X-42.54650 Y31.13908
G01 X-35.88860 Y31.13804
G01 X-35.72939 Y31.15374
G01 X-35.52398 Y31.21416
G01 X-35.08002 Y31.22592
G01 X-35.00308 Y31.24924
G01 X-34.87009 Y31.33814
G01 X-34.78124 Y31.47111
G01 X-34.74893 Y31.63918
G01 X-34.75789 Y32.60799
G01 X-34.78121 Y32.68490
G01 X-34.87009 Y32.81789
G01 X-34.93221 Y32.86890
G01 X-35.08002 Y32.93011
G01 X-36.43996 Y32.93011
G01 X-36.58842 Y32.86854
G01 X-36.69985 Y32.78360
G01 X-36.80412 Y32.75802
G01 X-42.53675 Y32.76046
G01 X-42.66517 Y32.81792
G01 X-42.70329 Y32.86305
G01 X-42.73451 Y32.94047
G01 X-42.73888 Y33.43862
G01 X-42.77121 Y33.60689
G01 X-42.86009 Y33.73991
G01 X-42.99308 Y33.82876
G01 X-43.16120 Y33.86110
G01 X-46.01500 Y33.86110
G01 X-46.09727 Y33.87659
G01 X-46.20374 Y33.96196
G01 X-46.24151 Y34.07829
G01 X-46.24200 Y35.37567
G01 X-46.22470 Y35.46254
G01 X-46.17550 Y35.53618
G01 X-46.11914 Y35.57615
G01 X-45.99549 Y35.60074
G01 X-45.91108 Y35.57631
G01 X-45.55391 Y35.33922
G01 X-45.20656 Y35.19536
G01 X-44.83793 Y35.12203
G01 X-44.46204 Y35.12203
G01 X-44.09346 Y35.19533
G01 X-43.74622 Y35.33917
G01 X-43.43372 Y35.54796
G01 X-43.16773 Y35.81395
G01 X-42.93410 Y36.15573
G01 X-42.82763 Y36.21527
G01 X-40.50680 Y36.22200
G01 X-40.41983 Y36.20473
G01 X-40.34617 Y36.15553
G01 X-39.00056 Y34.80430
G01 X-38.87704 Y34.70293
G01 X-38.73670 Y34.62792
G01 X-38.58438 Y34.58169
G01 X-38.42537 Y34.56605
G01 X-36.61260 Y34.57001
G01 X-36.34890 Y34.51695
G01 X-35.17108 Y34.51695
G01 X-34.90737 Y34.57001
G01 X-34.36059 Y34.56605
G01 X-34.20158 Y34.58169
G01 X-34.04926 Y34.62792
G01 X-33.90892 Y34.70293
G01 X-33.78543 Y34.80427
G01 X-32.64599 Y35.94367
G01 X-27.82024 Y40.77343
G01 X-27.71889 Y40.89695
G01 X-27.64386 Y41.03731
G01 X-27.59768 Y41.18963
G01 X-27.58201 Y41.34861
G01 X-27.58600 Y45.49130
G01 X-27.56870 Y45.57817
G01 X-27.51950 Y45.65180
G01 X-24.56980 Y48.60153
G01 X-24.49614 Y48.65073
G01 X-24.40922 Y48.66800
G01 X-19.69186 Y48.66556
G01 X-19.60786 Y48.63899
G01 X-19.55279 Y48.59797
G01 X-19.50697 Y48.52789
G01 X-19.49163 Y48.46053
G01 X-19.49514 Y48.39193
G01 X-19.54032 Y48.29983
G01 X-21.16668 Y46.67560
G01 X-21.26808 Y46.55208
G01 X-21.34309 Y46.41174
G01 X-21.38929 Y46.25942
G01 X-21.40496 Y46.10042
G01 X-21.40100 Y34.51850
G01 X-21.41502 Y34.43991
G01 X-21.44514 Y34.38545
G01 X-21.60422 Y34.21167
G01 X-21.66521 Y34.09757
G01 X-21.70278 Y33.97377
G01 X-21.71657 Y33.83379
G01 X-21.71657 Y32.60623
G01 X-21.70278 Y32.46623
G01 X-21.66521 Y32.34243
G01 X-21.60422 Y32.22833
G01 X-21.52216 Y32.12833
G01 X-21.31370 Y31.96938
G01 X-21.16671 Y31.77045
G01 X-20.77255 Y31.37629
G01 X-20.64908 Y31.27494
G01 X-20.50870 Y31.19991
G01 X-20.35637 Y31.15371
G01 X-20.19739 Y31.13804
G01 X-8.88510 Y31.14200
G01 X-8.75551 Y31.10134
G01 X-8.62249 Y30.97324
G01 X-8.45096 Y30.85633
G01 X-8.39424 Y30.78884
G01 X-8.36572 Y30.68980
G01 X-8.38251 Y30.59313
G01 X-8.43133 Y30.51988
G01 X-8.62208 Y30.38716
G01 X-8.75955 Y30.25590
G01 X-8.84078 Y30.22239
G01 X-12.46439 Y30.22199
G01 X-12.62337 Y30.20632
G01 X-12.77567 Y30.16011
G01 X-12.91608 Y30.08508
G01 X-13.03955 Y29.98376
G01 X-13.52512 Y29.49258
G01 X-13.58146 Y29.45260
G01 X-13.68562 Y29.42608
G01 X-14.18633 Y29.42608
G01 X-14.32626 Y29.41229
G01 X-14.45003 Y29.37474
G01 X-14.56418 Y29.31373
G01 X-14.66416 Y29.23169
G01 X-14.74622 Y29.13169
G01 X-14.80721 Y29.01760
G01 X-14.84478 Y28.89380
G01 X-14.85857 Y28.75387
G01 X-14.85857 Y27.52616
G01 X-14.84478 Y27.38625
G01 X-14.80724 Y27.26248
G01 X-14.74622 Y27.14836
G01 X-14.66416 Y27.04833
G01 X-14.56413 Y26.96627
G01 X-14.45006 Y26.90528
G01 X-14.32624 Y26.86771
G01 X-14.18638 Y26.85395
G01 X-13.28359 Y26.85395
G01 X-13.14374 Y26.86771
G01 X-13.01991 Y26.90528
G01 X-12.90582 Y26.96627
G01 X-12.80582 Y27.04833
G01 X-12.72372 Y27.14836
G01 X-12.66276 Y27.26246
G01 X-12.62520 Y27.38625
G01 X-12.61141 Y27.52616
G01 X-12.61141 Y28.02687
G01 X-12.59413 Y28.11374
G01 X-12.54493 Y28.18740
G01 X-12.19680 Y28.53553
G01 X-12.08057 Y28.59766
G01 X-8.84080 Y28.59766
G01 X-8.75955 Y28.56413
G01 X-8.62208 Y28.43286
G01 X-8.43133 Y28.30015
G01 X-8.37682 Y28.20812
G01 X-8.36714 Y28.12049
G01 X-8.38251 Y28.05313
G01 X-8.41929 Y27.99466
G01 X-8.62152 Y27.84754
G01 X-8.78093 Y27.70454
G01 X-8.88510 Y27.67802
G01 X-9.18050 Y27.66632
G01 X-9.33280 Y27.62011
G01 X-9.47313 Y27.54511
G01 X-9.59663 Y27.44374
G01 X-12.75027 Y24.28984
G01 X-12.82537 Y24.25624
G01 X-12.88936 Y24.25098
G01 X-13.14371 Y24.33229
G01 X-13.28359 Y24.34608
G01 X-14.18638 Y24.34608
G01 X-14.32626 Y24.33229
G01 X-14.45006 Y24.29474
G01 X-14.56416 Y24.23376
G01 X-14.66413 Y24.15169
G01 X-14.74622 Y24.05167
G01 X-14.80724 Y23.93754
G01 X-14.84478 Y23.81377
G01 X-14.85857 Y23.67387
G01 X-14.85857 Y22.44616
G01 X-14.84478 Y22.30623
G01 X-14.80721 Y22.18243
G01 X-14.74622 Y22.06833
G01 X-14.66416 Y21.96833
G01 X-14.56416 Y21.88627
G01 X-14.45003 Y21.82528
G01 X-14.32626 Y21.78774
G01 X-14.18633 Y21.77395
G01 X-13.28364 Y21.77395
G01 X-13.14371 Y21.78774
G01 X-13.01994 Y21.82528
G01 X-12.90584 Y21.88627
G01 X-12.80582 Y21.96833
G01 X-12.72375 Y22.06833
G01 X-12.60066 Y22.26572
G01 X-12.38100 Y22.38492
G01 X-12.25748 Y22.48632
G01 X-8.89429 Y25.85512
G01 X-8.78759 Y25.91486
G01 X-8.66567 Y25.91001
G01 X-8.44687 Y25.77297
G01 X-8.39175 Y25.70417
G01 X-8.36714 Y25.58049
G01 X-8.38251 Y25.51313
G01 X-8.41929 Y25.45466
G01 X-8.62152 Y25.30754
G01 X-8.79714 Y25.13193
G01 X-8.93481 Y24.92588
G01 X-9.02965 Y24.69695
G01 X-9.07811 Y24.45324
G01 X-9.08248 Y24.26378
G01 X-9.13788 Y24.15548
G01 X-12.66317 Y20.62950
G01 X-12.73683 Y20.58030
G01 X-12.82370 Y20.56303
G01 X-21.58741 Y20.56303
G01 X-21.70938 Y20.59866
G01 X-21.79714 Y20.70316
G01 X-21.81149 Y20.82460
G01 X-21.77616 Y20.91614
G01 X-20.95660 Y21.73569
G01 X-20.83049 Y21.77395
G01 X-20.06864 Y21.77395
G01 X-19.92871 Y21.78774
G01 X-19.80494 Y21.82528
G01 X-19.69082 Y21.88627
G01 X-19.59079 Y21.96836
G01 X-19.43992 Y22.17915
G01 X-19.39122 Y22.21972
G01 X-19.31515 Y22.24834
G01 X-17.91482 Y22.24834
G01 X-17.80248 Y22.19264
G01 X-17.63916 Y21.96833
G01 X-17.53916 Y21.88627
G01 X-17.42504 Y21.82528
G01 X-17.30126 Y21.78774
G01 X-17.16133 Y21.77395
G01 X-16.25864 Y21.77395
G01 X-16.11871 Y21.78774
G01 X-15.99494 Y21.82528
G01 X-15.88084 Y21.88627
G01 X-15.78082 Y21.96833
G01 X-15.69875 Y22.06833
G01 X-15.63774 Y22.18246
G01 X-15.60020 Y22.30625
G01 X-15.58641 Y22.44616
G01 X-15.58641 Y23.67387
G01 X-15.60020 Y23.81377
G01 X-15.63776 Y23.93757
G01 X-15.69872 Y24.05167
G01 X-15.78082 Y24.15169
G01 X-15.88082 Y24.23376
G01 X-15.99491 Y24.29474
G01 X-16.11871 Y24.33229
G01 X-16.25859 Y24.34608
G01 X-17.16138 Y24.34608
G01 X-17.30126 Y24.33229
G01 X-17.42506 Y24.29474
G01 X-17.53913 Y24.23376
G01 X-17.63916 Y24.15169
G01 X-17.80248 Y23.92738
G01 X-17.91475 Y23.87168
G01 X-19.27436 Y23.86802
G01 X-19.35447 Y23.88255
G01 X-19.42419 Y23.92434
G01 X-19.59079 Y24.15167
G01 X-19.69082 Y24.23376
G01 X-19.80491 Y24.29474
G01 X-19.92871 Y24.33229
G01 X-20.06859 Y24.34608
G01 X-20.97138 Y24.34608
G01 X-21.11126 Y24.33229
G01 X-21.23506 Y24.29474
G01 X-21.34916 Y24.23376
G01 X-21.44913 Y24.15169
G01 X-21.53122 Y24.05167
G01 X-21.59224 Y23.93754
G01 X-21.62978 Y23.81380
G01 X-21.64357 Y23.43429
G01 X-21.66084 Y23.34743
G01 X-21.71004 Y23.27377
G01 X-22.00212 Y22.98441
G01 X-22.06061 Y22.94763
G01 X-22.14748 Y22.93036
G01 X-22.39310 Y22.97730
G01 X-22.49759 Y23.06505
G01 X-22.53275 Y23.17722
G01 X-22.50003 Y23.30470
G01 X-22.37400 Y23.43955
G01 X-22.37148 Y23.92441
G01 X-22.42652 Y24.18321
G01 X-22.42127 Y24.24722
G01 X-22.38766 Y24.32233
G01 X-20.01926 Y26.69045
G01 X-19.84299 Y26.91867
G01 X-19.66382 Y27.04833
G01 X-19.52470 Y27.24689
G01 X-19.46422 Y27.29972
G01 X-19.34736 Y27.33200
G01 X-17.91919 Y27.32905
G01 X-17.80578 Y27.27569
G01 X-17.63916 Y27.04833
G01 X-17.53913 Y26.96627
G01 X-17.42506 Y26.90528
G01 X-17.30124 Y26.86771
G01 X-17.16138 Y26.85395
G01 X-16.25859 Y26.85395
G01 X-16.11874 Y26.86771
G01 X-15.99491 Y26.90528
G01 X-15.88082 Y26.96627
G01 X-15.78082 Y27.04833
G01 X-15.69872 Y27.14836
G01 X-15.63776 Y27.26246
G01 X-15.60020 Y27.38625
G01 X-15.58641 Y27.52616
G01 X-15.58641 Y28.75387
G01 X-15.60020 Y28.89377
G01 X-15.63774 Y29.01757
G01 X-15.69875 Y29.13169
G01 X-15.78082 Y29.23169
G01 X-15.88084 Y29.31376
G01 X-15.99494 Y29.37474
G01 X-16.11871 Y29.41229
G01 X-16.25872 Y29.42608
G01 X-17.16128 Y29.42608
G01 X-17.30126 Y29.41229
G01 X-17.42504 Y29.37474
G01 X-17.53918 Y29.31373
G01 X-17.63916 Y29.23169
G01 X-17.80578 Y29.00434
G01 X-17.87134 Y28.96423
G01 X-17.93258 Y28.95006
G01 X-19.41015 Y28.95778
G01 X-19.49719 Y29.00434
G01 X-19.66382 Y29.23169
G01 X-19.76382 Y29.31376
G01 X-19.87794 Y29.37474
G01 X-20.00171 Y29.41229
G01 X-20.14172 Y29.42608
G01 X-21.04428 Y29.42608
G01 X-21.18426 Y29.41229
G01 X-21.30803 Y29.37474
G01 X-21.42218 Y29.31373
G01 X-21.52216 Y29.23169
G01 X-21.60422 Y29.13169
G01 X-21.66521 Y29.01760
G01 X-21.70278 Y28.89380
G01 X-21.71657 Y28.75379
G01 X-21.71657 Y27.52555
G01 X-21.70504 Y27.37190
G01 X-21.72513 Y27.29537
G01 X-21.77118 Y27.22951
G01 X-22.12213 Y26.88397
G01 X-22.24745 Y26.84424
G01 X-22.35606 Y26.87013
G01 X-22.44215 Y26.94935
G01 X-22.47697 Y27.05542
G01 X-22.44448 Y27.27561
G01 X-22.44700 Y27.75976
G01 X-22.47326 Y27.78600
G01 X-22.75578 Y27.78603
G01 X-22.75746 Y27.47813
G01 X-22.78632 Y27.37221
G01 X-22.87280 Y27.25461
G01 X-22.94936 Y27.20216
G01 X-23.09081 Y27.16609
G01 X-23.21400 Y27.16502
G01 X-23.21397 Y26.88278
G01 X-23.18753 Y26.85633
G01 X-22.86582 Y26.85402
G01 X-22.67176 Y26.88679
G01 X-22.58108 Y26.87234
G01 X-22.50359 Y26.82309
G01 X-22.45197 Y26.74717
G01 X-22.43531 Y26.67734
G01 X-22.44712 Y26.58628
G01 X-22.50087 Y26.49979
G01 X-23.26419 Y25.73650
G01 X-23.33783 Y25.68730
G01 X-23.42472 Y25.67000
G01 X-42.60995 Y25.67437
G01 X-42.72956 Y25.74006
G01 X-42.78912 Y25.85756
G01 X-42.78828 Y25.94130
G01 X-42.74198 Y26.17412
G01 X-42.74198 Y26.54991
G01 X-42.81531 Y26.91856
G01 X-42.95915 Y27.26578
G01 X-43.16794 Y27.57828
G01 X-43.43372 Y27.84406
G01 X-43.74622 Y28.05285
G01 X-44.09346 Y28.19669
G01 X-44.46204 Y28.27000
G01 X-44.83793 Y28.27000
G01 X-45.20651 Y28.19669
G01 X-45.55376 Y28.05285
G01 X-45.86625 Y27.84406
G01 X-46.13201 Y27.57830
G01 X-46.34083 Y27.26578
G01 X-46.48467 Y26.91856
G01 X-46.55800 Y26.54991
G01 X-46.55800 Y26.17412
G01 X-46.48467 Y25.80546
G01 X-46.34083 Y25.45824
G01 X-46.13201 Y25.14572
G01 X-45.86628 Y24.87999
G01 X-45.55376 Y24.67115
G01 X-45.20656 Y24.52736
G01 X-44.83793 Y24.45403
G01 X-44.46204 Y24.45403
G01 X-44.09948 Y24.52614
G01 X-44.01091 Y24.52614
G01 X-43.90194 Y24.47061
G01 X-43.72455 Y24.28829
G01 X-43.60106 Y24.18695
G01 X-43.46070 Y24.11192
G01 X-43.30835 Y24.06571
G01 X-43.14939 Y24.05004
G01 X-24.84498 Y24.05400
G01 X-24.71524 Y24.01319
G01 X-24.63383 Y23.91014
G01 X-24.61801 Y23.82820
G01 X-24.61598 Y23.44026
G01 X-24.58971 Y23.41400
G01 X-24.30750 Y23.41403
G01 X-24.30750 Y23.68502
G01 X-24.29241 Y23.78662
G01 X-24.21156 Y23.92523
G01 X-24.08220 Y24.01169
G01 X-23.95736 Y24.03500
G01 X-22.99569 Y24.03305
G01 X-22.88967 Y24.00417
G01 X-22.79228 Y23.93909
G01 X-22.71332 Y23.82782
G01 X-22.68670 Y23.73381
G01 X-22.68370 Y22.41050
G01 X-22.70821 Y22.30336
G01 X-22.77842 Y22.19480
G01 X-22.86749 Y22.12635
G01 X-22.96180 Y22.09223
G01 X-24.01606 Y22.09030
G01 X-24.13490 Y22.13422
G01 X-24.20323 Y22.18581
G01 X-24.25576 Y22.25337
G01 X-24.29241 Y22.33341
G01 X-24.30640 Y22.42035
G01 X-24.30750 Y22.70603
G01 X-24.58971 Y22.70603
G01 X-24.61598 Y22.67976
G01 X-24.61791 Y22.02889
G01 X-24.64580 Y21.96701
G01 X-24.69510 Y21.91261
G01 X-24.75395 Y21.87877
G01 X-24.83620 Y21.86302
G01 X-39.28836 Y21.86699
G01 X-39.44737 Y21.85134
G01 X-39.59967 Y21.80514
G01 X-39.74005 Y21.73011
G01 X-39.86355 Y21.62874
G01 X-43.92910 Y17.56377
G01 X-44.05978 Y17.52562
G01 X-44.46171 Y17.60200
G01 X-44.83796 Y17.60200
G01 X-45.20654 Y17.52869
G01 X-45.55376 Y17.38488
G01 X-45.86628 Y17.17604
G01 X-46.13201 Y16.91030
G01 X-46.34083 Y16.59778
G01 X-46.48467 Y16.25051
G01 X-46.55800 Y15.88191
G01 X-46.55800 Y15.50609
G01 X-46.48467 Y15.13746
G01 X-46.34083 Y14.79024
G01 X-46.13201 Y14.47772
G01 X-45.86628 Y14.21199
G01 X-45.55376 Y14.00317
G01 X-45.20654 Y13.85933
G01 X-44.83796 Y13.78603
G01 X-44.46201 Y13.78603
G01 X-44.09349 Y13.85933
G01 X-43.74622 Y14.00317
G01 X-43.43370 Y14.21199
G01 X-43.16794 Y14.47775
G01 X-42.95912 Y14.79024
G01 X-42.81531 Y15.13746
G01 X-42.74198 Y15.50609
G01 X-42.74198 Y15.88221
G01 X-42.81838 Y16.28422
G01 X-42.78023 Y16.41490
G01 X-39.02080 Y20.18050
G01 X-38.89972 Y20.24352
G01 X-26.67988 Y20.24030
G01 X-26.57315 Y20.18055
G01 X-26.52392 Y20.10689
G01 X-26.50714 Y20.01022
G01 X-26.53569 Y19.91121
G01 X-27.00871 Y19.42958
G01 X-27.15570 Y19.23065
G01 X-27.36413 Y19.07169
G01 X-27.44622 Y18.97169
G01 X-27.50724 Y18.85757
G01 X-27.54475 Y18.73377
G01 X-27.55857 Y18.59392
G01 X-27.55857 Y17.36611
G01 X-27.54475 Y17.22625
G01 X-27.50724 Y17.10246
G01 X-27.44622 Y16.98836
G01 X-27.36413 Y16.88833
G01 X-27.26416 Y16.80627
G01 X-27.15006 Y16.74528
G01 X-27.02629 Y16.70774
G01 X-26.88623 Y16.69395
G01 X-25.98369 Y16.69395
G01 X-25.84371 Y16.70774
G01 X-25.71991 Y16.74528
G01 X-25.60582 Y16.80627
G01 X-25.50582 Y16.88833
G01 X-25.42375 Y16.98833
G01 X-25.36276 Y17.10246
G01 X-25.32520 Y17.22623
G01 X-25.31141 Y17.36623
G01 X-25.32174 Y18.74086
G01 X-25.27054 Y18.86438
G01 X-25.21997 Y18.90967
G01 X-25.15283 Y18.93941
G01 X-18.01251 Y18.94373
G01 X-17.94795 Y18.92282
G01 X-17.88843 Y18.87982
G01 X-17.84833 Y18.82506
G01 X-17.82323 Y18.74086
G01 X-17.83357 Y17.36616
G01 X-17.81978 Y17.22625
G01 X-17.78221 Y17.10246
G01 X-17.72122 Y16.98833
G01 X-17.56214 Y16.81457
G01 X-17.53202 Y16.76011
G01 X-17.51800 Y16.68153
G01 X-17.51800 Y12.69512
G01 X-17.55866 Y12.56553
G01 X-17.68676 Y12.43251
G01 X-17.82481 Y12.22591
G01 X-17.91965 Y11.99695
G01 X-17.96799 Y11.75390
G01 X-17.96799 Y11.50612
G01 X-17.91962 Y11.26305
G01 X-17.82481 Y11.03414
G01 X-17.68676 Y10.82751
G01 X-17.54416 Y10.67948
G01 X-17.51000 Y10.59929
G01 X-17.50571 Y10.53236
G01 X-17.53232 Y10.44344
G01 X-17.57670 Y10.38601
G01 X-17.78777 Y10.28088
G01 X-17.84988 Y10.22990
G01 X-17.93875 Y10.09691
G01 X-17.97098 Y9.92952
G01 X-17.96849 Y9.47029
G01 X-17.94220 Y9.44403
G01 X-17.65999 Y9.44400
G01 X-17.65805 Y9.95952
G01 X-17.63070 Y10.01072
G01 X-17.57949 Y10.03808
G01 X-15.85999 Y10.04001
G01 X-15.78928 Y10.01072
G01 X-15.76192 Y9.95952
G01 X-15.75999 Y9.44400
G01 X-15.47777 Y9.44400
G01 X-15.45148 Y9.47031
G01 X-15.44897 Y9.92944
G01 X-15.48122 Y10.09691
G01 X-15.57010 Y10.22993
G01 X-15.63220 Y10.28088
G01 X-15.78806 Y10.34791
G01 X-15.86128 Y10.40493
G01 X-15.90556 Y10.48652
G01 X-15.91506 Y10.55291
G01 X-15.87581 Y10.67948
G01 X-15.73319 Y10.82754
G01 X-15.59517 Y11.03414
G01 X-15.50032 Y11.26307
G01 X-15.45199 Y11.50610
G01 X-15.45199 Y11.75393
G01 X-15.50032 Y11.99695
G01 X-15.59517 Y12.22591
G01 X-15.73319 Y12.43249
G01 X-15.86131 Y12.56553
G01 X-15.90200 Y12.69512
G01 X-15.90198 Y16.68153
G01 X-15.88795 Y16.76011
G01 X-15.85783 Y16.81457
G01 X-15.69872 Y16.98836
G01 X-15.63774 Y17.10246
G01 X-15.60020 Y17.22625
G01 X-15.58641 Y17.36616
G01 X-15.59674 Y18.74086
G01 X-15.56116 Y18.84304
G01 X-15.49497 Y18.90967
G01 X-15.41305 Y18.94299
G01 X-15.07508 Y18.94703
G01 X-14.95001 Y18.90967
G01 X-14.87333 Y18.82506
G01 X-14.84823 Y18.74086
G01 X-14.85857 Y17.36616
G01 X-14.84478 Y17.22625
G01 X-14.80721 Y17.10246
G01 X-14.74622 Y16.98833
G01 X-14.66413 Y16.88833
G01 X-14.56416 Y16.80627
G01 X-14.45006 Y16.74528
G01 X-14.32626 Y16.70774
G01 X-14.18628 Y16.69395
G01 X-13.28372 Y16.69395
G01 X-13.14371 Y16.70774
G01 X-13.01991 Y16.74528
G01 X-12.90582 Y16.80627
G01 X-12.80582 Y16.88833
G01 X-12.64249 Y17.11264
G01 X-12.53020 Y17.16834
G01 X-10.42850 Y17.16804
G01 X-10.26953 Y17.18371
G01 X-10.11720 Y17.22991
G01 X-9.97684 Y17.30492
G01 X-9.85335 Y17.40626
G01 X-7.24626 Y20.01335
G01 X-7.14492 Y20.13687
G01 X-7.06989 Y20.27720
G01 X-7.02368 Y20.42953
G01 X-7.01200 Y20.72490
G01 X-6.99470 Y20.81177
G01 X-6.94550 Y20.88543
G01 X-6.84284 Y20.98810
G01 X-6.70517 Y21.19412
G01 X-6.61032 Y21.42310
G01 X-6.56199 Y21.66610
G04 P0 ( dwell for no time -- G64 should not smooth over this point )
G00 Z5.00000 ( retract )

G00 X-6.87052 Y21.77956 ( rapid move to begin. )
G01 F300.00000
G01 Z-0.05000
G04 P0 ( dwell for no time -- G64 should not smooth over this point )
G01 F600.00000
G01 X-6.87052 Y21.77956
G01 X-6.89346 Y21.58238
G01 X-6.95688 Y21.39429
G01 X-7.05800 Y21.22348
G01 X-7.17692 Y21.09142
G01 X-7.31998 Y20.98477
G01 X-7.32815 Y20.50009
G01 X-7.36224 Y20.38772
G01 X-7.41009 Y20.30227
G01 X-10.07435 Y17.62646
G01 X-10.15853 Y17.55922
G01 X-10.32083 Y17.49202
G01 X-10.42789 Y17.48000
G01 X-12.92296 Y17.48000
G01 X-12.92670 Y17.30621
G01 X-12.94821 Y17.22336
G01 X-12.98733 Y17.15267
G01 X-13.09083 Y17.05674
G01 X-13.17089 Y17.02008
G01 X-13.25781 Y17.00609
G01 X-14.24150 Y17.00815
G01 X-14.37089 Y17.05138
G01 X-14.47650 Y17.14500
G01 X-14.52415 Y17.23032
G01 X-14.54749 Y17.35501
G01 X-14.54701 Y18.61482
G01 X-14.52415 Y18.72971
G01 X-14.46957 Y18.82513
G01 X-14.41760 Y18.87710
G01 X-14.32220 Y18.93169
G01 X-14.19748 Y18.95500
G01 X-13.27249 Y18.95500
G01 X-13.17089 Y18.93994
G01 X-13.07015 Y18.89018
G01 X-12.97643 Y18.79105
G01 X-12.92449 Y18.64200
G01 X-12.92296 Y18.48002
G01 X-10.63501 Y18.48002
G01 X-8.32000 Y20.79503
G01 X-8.32000 Y20.98477
G01 X-8.46305 Y21.09142
G01 X-8.58197 Y21.22348
G01 X-8.68787 Y21.40362
G01 X-8.75086 Y21.60283
G01 X-8.76945 Y21.80046
G01 X-8.74652 Y21.99764
G01 X-8.68787 Y22.17641
G01 X-8.59424 Y22.33963
G01 X-8.46305 Y22.48860
G01 X-8.29498 Y22.61273
G01 X-8.10344 Y22.69622
G01 X-7.92963 Y22.73318
G01 X-7.73115 Y22.73536
G01 X-7.53654 Y22.69622
G01 X-7.34499 Y22.61273
G01 X-7.17692 Y22.48860
G01 X-7.05142 Y22.34842
G01 X-6.95688 Y22.18573
G01 X-6.89346 Y21.99764
G01 X-6.87052 Y21.77956
G04 P0 ( dwell for no time -- G64 should not smooth over this point )
G00 Z5.00000 ( retract )

G00 X-6.87052 Y24.31956 ( rapid move to begin. )
G01 F300.00000
G01 Z-0.05000
G04 P0 ( dwell for no time -- G64 should not smooth over this point )
G01 F600.00000
G01 X-6.87052 Y24.31956
G01 X-6.89346 Y24.12238
G01 X-6.95211 Y23.94362
G01 X-7.05142 Y23.77161
G01 X-7.17692 Y23.63142
G01 X-7.34499 Y23.50729
G01 X-7.53654 Y23.42380
G01 X-7.73115 Y23.38466
G01 X-7.90882 Y23.38466
G01 X-8.03389 Y23.40902
G01 X-12.04143 Y19.40146
G01 X-12.12560 Y19.33425
G01 X-12.21288 Y19.28978
G01 X-12.39497 Y19.25503
G01 X-25.32786 Y19.25503
G01 X-25.72944 Y18.85346
G01 X-25.64912 Y18.73895
G01 X-25.62370 Y18.62953
G01 X-25.62443 Y17.31828
G01 X-25.65331 Y17.21221
G01 X-25.71839 Y17.11480
G01 X-25.82967 Y17.03586
G01 X-25.96269 Y17.00550
G01 X-26.93429 Y17.00698
G01 X-27.02916 Y17.03075
G01 X-27.09982 Y17.06984
G01 X-27.19829 Y17.17759
G01 X-27.22911 Y17.24416
G01 X-27.24747 Y17.35501
G01 X-27.24747 Y18.60502
G01 X-27.21663 Y18.74782
G01 X-27.18265 Y18.80735
G01 X-27.09982 Y18.89018
G01 X-27.02220 Y18.93169
G01 X-26.92481 Y18.95279
G01 X-26.89271 Y19.05523
G01 X-26.78854 Y19.20857
G01 X-25.88849 Y20.10857
G01 X-25.80434 Y20.17580
G01 X-25.71707 Y20.22028
G01 X-25.53498 Y20.25503
G01 X-12.60208 Y20.25503
G01 X-8.74362 Y24.11349
G01 X-8.76945 Y24.34046
G01 X-8.74652 Y24.53764
G01 X-8.68787 Y24.71641
G01 X-8.58197 Y24.89655
G01 X-8.44753 Y25.04260
G01 X-8.30377 Y25.14704
G01 X-8.12333 Y25.22977
G01 X-7.90882 Y25.27536
G01 X-7.71035 Y25.27318
G01 X-7.53654 Y25.23622
G01 X-7.34499 Y25.15273
G01 X-7.17692 Y25.02860
G01 X-7.05142 Y24.88842
G01 X-6.95688 Y24.72573
G01 X-6.89346 Y24.53764
G01 X-6.87052 Y24.31956
G04 P0 ( dwell for no time -- G64 should not smooth over this point )
G00 Z5.00000 ( retract )

G00 X-6.87052 Y26.85956 ( rapid move to begin. )
G01 F300.00000
G01 Z-0.05000
G04 P0 ( dwell for no time -- G64 should not smooth over this point )
G01 F600.00000
G01 X-6.87052 Y26.85956
G01 X-6.89346 Y26.66238
G01 X-6.94837 Y26.49339
G01 X-7.05142 Y26.31161
G01 X-7.17692 Y26.17142
G01 X-7.33621 Y26.05298
G01 X-7.53654 Y25.96380
G01 X-7.71035 Y25.92685
G01 X-7.90882 Y25.92466
G01 X-8.10344 Y25.96380
G01 X-8.29498 Y26.04729
G01 X-8.44753 Y26.15743
G01 X-8.58197 Y26.30348
G01 X-8.62289 Y26.37003
G01 X-8.81497 Y26.37000
G01 X-12.47851 Y22.70646
G01 X-12.56269 Y22.63922
G01 X-12.64996 Y22.59477
G01 X-12.74422 Y22.56818
G01 X-12.92248 Y22.56000
G01 X-12.92296 Y22.42520
G01 X-12.94582 Y22.31032
G01 X-12.98285 Y22.23854
G01 X-13.06248 Y22.15599
G01 X-13.13856 Y22.11167
G01 X-13.24785 Y22.08621
G01 X-14.20729 Y22.08550
G01 X-14.34457 Y22.11827
G01 X-14.41760 Y22.16292
G01 X-14.47650 Y22.22500
G01 X-14.52415 Y22.31032
G01 X-14.54749 Y22.43501
G01 X-14.54749 Y23.68502
G01 X-14.51989 Y23.82121
G01 X-14.42679 Y23.94897
G01 X-14.33368 Y24.00739
G01 X-14.20729 Y24.03452
G01 X-13.27249 Y24.03500
G01 X-13.18524 Y24.02317
G01 X-13.08009 Y23.97737
G01 X-12.98733 Y23.88735
G01 X-12.94453 Y23.80498
G01 X-12.92352 Y23.67567
G01 X-9.37562 Y27.22357
G01 X-9.29145 Y27.29080
G01 X-9.10991 Y27.36185
G01 X-8.62289 Y27.37000
G01 X-8.46305 Y27.56860
G01 X-8.28566 Y27.69748
G01 X-8.12333 Y27.76977
G01 X-7.92963 Y27.81318
G01 X-7.71035 Y27.81318
G01 X-7.51665 Y27.76977
G01 X-7.34499 Y27.69273
G01 X-7.19244 Y27.58260
G01 X-7.05800 Y27.43655
G01 X-6.95211 Y27.25641
G01 X-6.89346 Y27.07764
G01 X-6.87052 Y26.85956
G04 P0 ( dwell for no time -- G64 should not smooth over this point )
G00 Z5.00000 ( retract )

G00 X-6.87052 Y29.39956 ( rapid move to begin. )
G01 F300.00000
G01 Z-0.05000
G04 P0 ( dwell for no time -- G64 should not smooth over this point )
G01 F600.00000
G01 X-6.87052 Y29.39956
G01 X-6.89346 Y29.20238
G01 X-6.95211 Y29.02362
G01 X-7.05142 Y28.85161
G01 X-7.17692 Y28.71142
G01 X-7.34499 Y28.58729
G01 X-7.51665 Y28.51026
G01 X-7.73115 Y28.46466
G01 X-7.92963 Y28.46685
G01 X-8.12333 Y28.51026
G01 X-8.28566 Y28.58254
G01 X-8.46305 Y28.71142
G01 X-8.62289 Y28.91000
G01 X-12.25789 Y28.91003
G01 X-12.92256 Y28.24533
G01 X-12.92560 Y27.47099
G01 X-12.96886 Y27.34160
G01 X-13.06248 Y27.23599
G01 X-13.14778 Y27.18834
G01 X-13.26269 Y27.16550
G01 X-14.21216 Y27.16609
G01 X-14.29672 Y27.17940
G01 X-14.37490 Y27.21422
G01 X-14.45156 Y27.27480
G01 X-14.52547 Y27.39504
G01 X-14.54628 Y27.49042
G01 X-14.54749 Y28.76492
G01 X-14.52911 Y28.87586
G01 X-14.45458 Y29.00136
G01 X-14.34031 Y29.08417
G01 X-14.23431 Y29.11305
G01 X-13.46716 Y29.11495
G01 X-12.81128 Y29.77015
G01 X-12.73437 Y29.83080
G01 X-12.57206 Y29.89801
G01 X-12.46500 Y29.91002
G01 X-8.62289 Y29.91002
G01 X-8.46305 Y30.10860
G01 X-8.28566 Y30.23748
G01 X-8.12333 Y30.30977
G01 X-7.92963 Y30.35318
G01 X-7.73115 Y30.35536
G01 X-7.53654 Y30.31622
G01 X-7.34499 Y30.23273
G01 X-7.19244 Y30.12260
G01 X-7.05800 Y29.97655
G01 X-6.95211 Y29.79641
G01 X-6.89346 Y29.61764
G01 X-6.87052 Y29.39956
G04 P0 ( dwell for no time -- G64 should not smooth over this point )
G00 Z5.00000 ( retract )

G00 X-6.87052 Y31.93956 ( rapid move to begin. )
G01 F300.00000
G01 Z-0.05000
G04 P0 ( dwell for no time -- G64 should not smooth over this point )
G01 F600.00000
G01 X-6.87052 Y31.93956
G01 X-6.89346 Y31.74238
G01 X-6.95211 Y31.56362
G01 X-7.05142 Y31.39161
G01 X-7.17692 Y31.25142
G01 X-7.34499 Y31.12729
G01 X-7.51665 Y31.05026
G01 X-7.73115 Y31.00466
G01 X-7.92963 Y31.00685
G01 X-8.12333 Y31.05026
G01 X-8.28566 Y31.12254
G01 X-8.46305 Y31.25142
G01 X-8.62289 Y31.45003
G01 X-20.19798 Y31.45000
G01 X-20.38010 Y31.48477
G01 X-20.54426 Y31.58988
G01 X-21.00288 Y32.05935
G01 X-21.05073 Y32.14479
G01 X-21.08284 Y32.24723
G01 X-21.19831 Y32.27586
G01 X-21.29569 Y32.34093
G01 X-21.35155 Y32.40898
G01 X-21.39638 Y32.51721
G01 X-21.40021 Y33.90359
G01 X-21.37466 Y33.98782
G01 X-21.29569 Y34.09909
G01 X-21.19831 Y34.16417
G01 X-21.09297 Y34.19180
G01 X-21.09300 Y46.10100
G01 X-21.05823 Y46.28312
G01 X-21.01378 Y46.37039
G01 X-20.94654 Y46.45457
G01 X-18.87154 Y48.52955
G01 X-18.71820 Y48.63374
G01 X-18.62506 Y48.66401
G01 X-18.51800 Y48.67600
G01 X-15.65509 Y48.67600
G01 X-12.38400 Y51.94712
G01 X-12.38400 Y52.44003
G01 X-12.85601 Y52.44193
G01 X-12.90719 Y52.46931
G01 X-12.93457 Y52.52049
G01 X-12.93650 Y54.54002
G01 X-12.91963 Y54.59557
G01 X-12.85601 Y54.63809
G01 X-10.93150 Y54.64002
G01 X-10.87592 Y54.62316
G01 X-10.83909 Y54.57828
G01 X-10.83341 Y52.52049
G01 X-10.86079 Y52.46931
G01 X-10.91197 Y52.44193
G01 X-11.38400 Y52.44000
G01 X-11.39215 Y51.65217
G01 X-11.42624 Y51.53980
G01 X-11.52385 Y51.39373
G01 X-15.09443 Y47.82246
G01 X-15.17863 Y47.75523
G01 X-15.34094 Y47.68799
G01 X-15.44800 Y47.67600
G01 X-18.31089 Y47.67600
G01 X-20.09298 Y45.89391
G01 X-20.09300 Y34.19257
G01 X-19.97436 Y34.15787
G01 X-19.90118 Y34.10897
G01 X-19.81375 Y33.99208
G01 X-19.78576 Y33.90359
G01 X-19.78170 Y32.57042
G01 X-19.81269 Y32.45000
G01 X-8.62289 Y32.45002
G01 X-8.46305 Y32.64860
G01 X-8.28566 Y32.77748
G01 X-8.12333 Y32.84977
G01 X-7.92963 Y32.89318
G01 X-7.73115 Y32.89536
G01 X-7.53654 Y32.85622
G01 X-7.34499 Y32.77273
G01 X-7.19244 Y32.66260
G01 X-7.05800 Y32.51655
G01 X-6.95211 Y32.33641
G01 X-6.89346 Y32.15765
G01 X-6.87052 Y31.93956
G04 P0 ( dwell for no time -- G64 should not smooth over this point )
G00 Z5.00000 ( retract )

G00 X-6.87052 Y34.47956 ( rapid move to begin. )
G01 F300.00000
G01 Z-0.05000
G04 P0 ( dwell for no time -- G64 should not smooth over this point )
G01 F600.00000
G01 X-6.87052 Y34.47956
G01 X-6.89346 Y34.69764
G01 X-6.95211 Y34.87641
G01 X-7.05800 Y35.05655
G01 X-7.19244 Y35.20260
G01 X-7.34499 Y35.31273
G01 X-7.51665 Y35.38977
G01 X-7.71035 Y35.43318
G01 X-7.92963 Y35.43318
G01 X-8.12333 Y35.38977
G01 X-8.28566 Y35.31748
G01 X-8.46305 Y35.18860
G01 X-8.62289 Y34.99000
G01 X-10.81039 Y34.99002
G01 X-13.24694 Y37.42657
G01 X-13.16662 Y37.54107
G01 X-13.14193 Y37.63828
G01 X-13.14193 Y38.96175
G01 X-13.17081 Y39.06782
G01 X-13.24978 Y39.17909
G01 X-13.34717 Y39.24417
G01 X-13.45250 Y39.27180
G01 X-13.45248 Y42.12041
G01 X-7.72043 Y47.85246
G01 X-7.65320 Y47.93663
G01 X-7.60875 Y48.02391
G01 X-7.57398 Y48.20600
G01 X-7.57398 Y55.31800
G01 X-7.60875 Y55.50012
G01 X-7.71385 Y55.66430
G01 X-9.25170 Y57.20215
G01 X-9.39777 Y57.29976
G01 X-9.58820 Y57.34154
G01 X-25.62200 Y57.34202
G01 X-25.80406 Y57.30725
G01 X-25.96827 Y57.20215
G01 X-27.47754 Y55.69356
G01 X-27.54475 Y55.60939
G01 X-27.58923 Y55.52211
G01 X-27.62349 Y55.34983
G01 X-27.62397 Y54.64002
G01 X-28.09601 Y54.63809
G01 X-28.13205 Y54.62316
G01 X-28.16885 Y54.57828
G01 X-28.17650 Y52.54000
G01 X-28.15963 Y52.48445
G01 X-28.11475 Y52.44762
G01 X-26.17150 Y52.44000
G01 X-26.11590 Y52.45687
G01 X-26.08831 Y52.48445
G01 X-26.07147 Y52.54000
G01 X-26.07341 Y54.55953
G01 X-26.10079 Y54.61071
G01 X-26.15197 Y54.63809
G01 X-26.62398 Y54.64002
G01 X-26.62398 Y55.13291
G01 X-25.41488 Y56.34203
G01 X-9.80509 Y56.34203
G01 X-8.57397 Y55.11091
G01 X-8.57400 Y48.41311
G01 X-14.30604 Y42.68107
G01 X-14.37328 Y42.59689
G01 X-14.44048 Y42.43459
G01 X-14.45250 Y42.32750
G01 X-14.45250 Y39.27180
G01 X-14.55781 Y39.24417
G01 X-14.65519 Y39.17909
G01 X-14.73416 Y39.06782
G01 X-14.75971 Y38.98359
G01 X-14.76301 Y37.63823
G01 X-14.73416 Y37.53221
G01 X-14.66906 Y37.43480
G01 X-14.55781 Y37.35586
G01 X-14.44234 Y37.32723
G01 X-14.41023 Y37.22479
G01 X-14.30604 Y37.07145
G01 X-11.37105 Y34.13646
G01 X-11.28685 Y34.06922
G01 X-11.19960 Y34.02477
G01 X-11.01748 Y33.99000
G01 X-8.62289 Y33.99003
G01 X-8.46305 Y33.79142
G01 X-8.28566 Y33.66254
G01 X-8.12333 Y33.59026
G01 X-7.92963 Y33.54685
G01 X-7.71035 Y33.54685
G01 X-7.51665 Y33.59026
G01 X-7.34499 Y33.66729
G01 X-7.19244 Y33.77743
G01 X-7.05800 Y33.92348
G01 X-6.94837 Y34.11339
G01 X-6.89346 Y34.28238
G01 X-6.87052 Y34.47956
G04 P0 ( dwell for no time -- G64 should not smooth over this point )
G00 Z5.00000 ( retract )

G00 X-8.36557 Y33.21563 ( rapid move to begin. )
G01 F300.00000
G01 Z-0.05000
G04 P0 ( dwell for no time -- G64 should not smooth over this point )
G01 F600.00000
G01 X-8.36557 Y33.21563
G01 X-8.38695 Y33.12384
G01 X-8.43151 Y33.05975
G01 X-8.62147 Y32.92762
G01 X-8.78093 Y32.78454
G01 X-8.88510 Y32.75802
G01 X-19.26191 Y32.75993
G01 X-19.37255 Y32.79910
G01 X-19.45391 Y32.90273
G01 X-19.46941 Y32.98502
G01 X-19.46941 Y33.83384
G01 X-19.48320 Y33.97374
G01 X-19.52074 Y34.09757
G01 X-19.58172 Y34.21167
G01 X-19.74083 Y34.38545
G01 X-19.78343 Y34.50092
G01 X-19.78500 Y45.67230
G01 X-19.76770 Y45.75917
G01 X-19.71850 Y45.83283
G01 X-18.24980 Y47.30151
G01 X-18.17616 Y47.35073
G01 X-18.08930 Y47.36800
G01 X-15.44861 Y47.36404
G01 X-15.28961 Y47.37969
G01 X-15.13728 Y47.42592
G01 X-14.99692 Y47.50092
G01 X-14.87340 Y47.60229
G01 X-11.31026 Y51.16543
G01 X-11.20892 Y51.28892
G01 X-11.13389 Y51.42931
G01 X-11.08768 Y51.58161
G01 X-11.07430 Y51.92837
G01 X-11.04671 Y52.02111
G01 X-10.95512 Y52.11067
G01 X-10.77460 Y52.16124
G01 X-10.64158 Y52.25011
G01 X-10.55271 Y52.38313
G01 X-10.52939 Y52.46004
G01 X-10.52939 Y54.61998
G01 X-10.59061 Y54.76779
G01 X-10.70371 Y54.88089
G01 X-10.77458 Y54.91879
G01 X-10.94268 Y54.95110
G01 X-12.91648 Y54.94211
G01 X-12.99340 Y54.91879
G01 X-13.12636 Y54.82991
G01 X-13.26789 Y54.63510
G01 X-13.34600 Y54.59334
G01 X-13.43414 Y54.58465
G01 X-13.52733 Y54.61541
G01 X-13.66446 Y54.72420
G01 X-13.90084 Y54.85054
G01 X-14.15727 Y54.92831
G01 X-14.42400 Y54.95460
G01 X-14.69070 Y54.92834
G01 X-14.94714 Y54.85054
G01 X-15.18351 Y54.72420
G01 X-15.39105 Y54.55387
G01 X-15.55532 Y54.36050
G01 X-15.63248 Y54.31912
G01 X-15.70055 Y54.31018
G01 X-15.78641 Y54.32770
G01 X-15.84483 Y54.36210
G01 X-16.01371 Y54.55801
G01 X-16.22171 Y54.72496
G01 X-16.46105 Y54.84955
G01 X-16.57398 Y54.88633
G01 X-16.61000 Y54.86875
G01 X-16.61000 Y54.57629
G01 X-16.42895 Y54.49331
G01 X-16.25232 Y54.36227
G01 X-16.11249 Y54.20617
G01 X-16.00723 Y54.02494
G01 X-15.93449 Y53.80634
G01 X-15.91147 Y53.49250
G01 X-15.93449 Y53.27368
G01 X-15.99872 Y53.07419
G01 X-16.11249 Y52.87386
G01 X-16.26786 Y52.70376
G01 X-16.42895 Y52.58671
G01 X-16.61000 Y52.50373
G01 X-16.61000 Y52.21128
G01 X-16.57398 Y52.19370
G01 X-16.46103 Y52.23048
G01 X-16.22171 Y52.35506
G01 X-16.01371 Y52.52202
G01 X-15.84109 Y52.72105
G01 X-15.76812 Y52.76012
G01 X-15.70055 Y52.76985
G01 X-15.63246 Y52.76091
G01 X-15.55532 Y52.71953
G01 X-15.39055 Y52.52557
G01 X-15.28587 Y52.43510
G01 X-15.23482 Y52.32367
G01 X-15.23444 Y52.14366
G01 X-15.26101 Y52.05989
G01 X-15.29847 Y52.00820
G01 X-16.95618 Y50.35050
G01 X-17.03906 Y50.29799
G01 X-17.09189 Y50.28646
G01 X-24.83742 Y50.28799
G01 X-24.99639 Y50.27232
G01 X-25.14869 Y50.22611
G01 X-25.28905 Y50.15111
G01 X-25.41255 Y50.04974
G01 X-28.96771 Y46.49457
G01 X-29.06906 Y46.37108
G01 X-29.14409 Y46.23069
G01 X-29.19029 Y46.07842
G01 X-29.20596 Y45.91942
G01 X-29.20197 Y41.77673
G01 X-29.24307 Y41.64660
G01 X-34.62818 Y36.25251
G01 X-34.72058 Y36.19759
G01 X-34.94362 Y36.18893
G01 X-35.08027 Y36.23013
G01 X-35.17115 Y36.23909
G01 X-36.34882 Y36.23909
G01 X-36.61275 Y36.18601
G01 X-38.04166 Y36.19040
G01 X-38.15779 Y36.25251
G01 X-39.50343 Y37.60374
G01 X-39.62692 Y37.70508
G01 X-39.76728 Y37.78011
G01 X-39.91961 Y37.82632
G01 X-40.07858 Y37.84199
G01 X-42.81815 Y37.84239
G01 X-42.93751 Y37.90782
G01 X-43.16773 Y38.24608
G01 X-43.43372 Y38.51206
G01 X-43.74622 Y38.72085
G01 X-44.09346 Y38.86469
G01 X-44.46209 Y38.93802
G01 X-44.83788 Y38.93802
G01 X-45.20651 Y38.86469
G01 X-45.55391 Y38.72080
G01 X-45.92825 Y38.47457
G01 X-46.01500 Y38.45735
G01 X-46.08309 Y38.46894
G01 X-46.17550 Y38.52385
G01 X-46.22470 Y38.59748
G01 X-46.24200 Y38.68435
G01 X-46.24200 Y40.47993
G01 X-46.22470 Y40.56680
G01 X-46.17550 Y40.64046
G01 X-46.10186 Y40.68966
G01 X-46.01500 Y40.70693
G01 X-43.16110 Y40.70693
G01 X-42.99308 Y40.73924
G01 X-42.86009 Y40.82811
G01 X-42.77121 Y40.96111
G01 X-42.73888 Y41.12943
G01 X-42.73451 Y41.62755
G01 X-42.67901 Y41.73626
G01 X-42.57497 Y41.79997
G01 X-40.76083 Y41.81000
G01 X-40.67383 Y41.79273
G01 X-40.60017 Y41.74353
G01 X-39.89255 Y41.03030
G01 X-39.76906 Y40.92895
G01 X-39.62870 Y40.85392
G01 X-39.47640 Y40.80772
G01 X-39.31737 Y40.79204
G01 X-36.61260 Y40.79601
G01 X-36.34882 Y40.74295
G01 X-35.17115 Y40.74295
G01 X-35.07999 Y40.75191
G01 X-34.93221 Y40.81313
G01 X-34.81911 Y40.92623
G01 X-34.78121 Y40.99712
G01 X-34.74893 Y41.16520
G01 X-34.74893 Y42.04284
G01 X-34.78121 Y42.21091
G01 X-34.87009 Y42.34391
G01 X-35.00311 Y42.43278
G01 X-35.17110 Y42.46509
G01 X-36.34887 Y42.46509
G01 X-36.61270 Y42.41201
G01 X-38.93360 Y42.41637
G01 X-39.04978 Y42.47850
G01 X-39.75740 Y43.19171
G01 X-39.88092 Y43.29308
G01 X-40.02128 Y43.36811
G01 X-40.17363 Y43.41432
G01 X-40.33258 Y43.42999
G01 X-42.51190 Y43.42602
G01 X-42.59420 Y43.44152
G01 X-42.68823 Y43.51178
G01 X-42.73451 Y43.60847
G01 X-42.73888 Y44.10659
G01 X-42.77121 Y44.27494
G01 X-42.86009 Y44.40794
G01 X-42.99308 Y44.49679
G01 X-43.06999 Y44.52010
G01 X-46.01500 Y44.52910
G01 X-46.09727 Y44.54459
G01 X-46.20374 Y44.62996
G01 X-46.24151 Y44.74629
G01 X-46.24200 Y46.04367
G01 X-46.22648 Y46.12597
G01 X-46.20090 Y46.17380
G01 X-46.13267 Y46.23745
G01 X-45.99549 Y46.26874
G01 X-45.91108 Y46.24431
G01 X-45.55391 Y46.00722
G01 X-45.20656 Y45.86333
G01 X-44.83788 Y45.79000
G01 X-44.46209 Y45.79000
G01 X-44.09344 Y45.86333
G01 X-43.74622 Y46.00717
G01 X-43.43372 Y46.21596
G01 X-43.16773 Y46.48195
G01 X-42.93410 Y46.82373
G01 X-42.81325 Y46.88650
G01 X-37.68842 Y46.88566
G01 X-37.57219 Y46.82353
G01 X-36.67938 Y45.93072
G01 X-36.63236 Y45.86219
G01 X-36.61316 Y45.78134
G01 X-36.62434 Y45.69902
G01 X-36.73876 Y45.51091
G01 X-36.76208 Y45.43400
G01 X-36.77105 Y44.46514
G01 X-36.73876 Y44.29714
G01 X-36.64989 Y44.16412
G01 X-36.58776 Y44.11315
G01 X-36.43998 Y44.05193
G01 X-36.34887 Y44.04294
G01 X-35.17110 Y44.04294
G01 X-34.90737 Y44.09603
G01 X-34.36059 Y44.09204
G01 X-34.20158 Y44.10774
G01 X-34.04928 Y44.15391
G01 X-33.90890 Y44.22894
G01 X-33.78543 Y44.33029
G01 X-29.09026 Y49.02545
G01 X-28.98892 Y49.14895
G01 X-28.91386 Y49.28928
G01 X-28.86768 Y49.44161
G01 X-28.85201 Y49.60061
G01 X-28.85595 Y52.22662
G01 X-28.84091 Y52.30708
G01 X-28.79164 Y52.38455
G01 X-28.69649 Y52.44302
G01 X-28.62544 Y52.45329
G01 X-28.55999 Y52.44257
G01 X-28.48000 Y52.39748
G01 X-28.36639 Y52.25011
G01 X-28.30426 Y52.19913
G01 X-28.15646 Y52.13792
G01 X-28.06532 Y52.12893
G01 X-26.18268 Y52.12893
G01 X-26.01460 Y52.16124
G01 X-25.94369 Y52.19913
G01 X-25.83061 Y52.31224
G01 X-25.76937 Y52.46004
G01 X-25.76043 Y52.55110
G01 X-25.76937 Y54.61998
G01 X-25.83061 Y54.76779
G01 X-25.88161 Y54.82991
G01 X-26.07501 Y54.97815
G01 X-26.11242 Y55.06362
G01 X-26.11557 Y55.13652
G01 X-26.09779 Y55.20154
G01 X-26.05098 Y55.27032
G01 X-25.35380 Y55.96753
G01 X-25.28014 Y56.01673
G01 X-25.19327 Y56.03400
G01 X-9.96366 Y56.02397
G01 X-9.86617 Y55.96753
G01 X-8.94847 Y55.04983
G01 X-8.88550 Y54.92874
G01 X-8.88634 Y48.59043
G01 X-8.94847 Y48.47420
G01 X-14.52621 Y42.90210
G01 X-14.62756 Y42.77860
G01 X-14.70259 Y42.63822
G01 X-14.74879 Y42.48589
G01 X-14.76446 Y42.32692
G01 X-14.76246 Y39.57610
G01 X-14.79644 Y39.47630
G01 X-14.96375 Y39.29167
G01 X-15.02471 Y39.17757
G01 X-15.06228 Y39.05377
G01 X-15.07607 Y38.91387
G01 X-15.07607 Y37.68616
G01 X-15.06228 Y37.54625
G01 X-15.02471 Y37.42246
G01 X-14.96375 Y37.30836
G01 X-14.88166 Y37.20836
G01 X-14.70249 Y37.07867
G01 X-14.52621 Y36.85042
G01 X-11.59205 Y33.91629
G01 X-11.46856 Y33.81492
G01 X-11.32817 Y33.73989
G01 X-11.17590 Y33.69371
G01 X-11.01689 Y33.67804
G01 X-8.86559 Y33.68010
G01 X-8.79823 Y33.66473
G01 X-8.73973 Y33.62797
G01 X-8.62147 Y33.51240
G01 X-8.43293 Y33.38165
G01 X-8.38340 Y33.30819
G01 X-8.36557 Y33.21563
G04 P0 ( dwell for no time -- G64 should not smooth over this point )
G00 Z5.00000 ( retract )

G00 X-15.80398 Y37.43559 ( rapid move to begin. )
G01 F300.00000
G01 Z-0.05000
G04 P0 ( dwell for no time -- G64 should not smooth over this point )
G01 F600.00000
G01 X-15.80398 Y37.43559
G01 X-15.80650 Y37.91976
G01 X-15.83276 Y37.94600
G01 X-16.11528 Y37.94603
G01 X-16.11696 Y37.63813
G01 X-16.14582 Y37.53221
G01 X-16.23230 Y37.41461
G01 X-16.30886 Y37.36216
G01 X-16.45031 Y37.32609
G01 X-16.57347 Y37.32502
G01 X-16.57347 Y37.04278
G01 X-16.54703 Y37.01633
G01 X-16.22529 Y37.01402
G01 X-16.05808 Y37.04626
G01 X-15.98722 Y37.08413
G01 X-15.87411 Y37.19723
G01 X-15.81290 Y37.34504
G01 X-15.80398 Y37.43559
G04 P0 ( dwell for no time -- G64 should not smooth over this point )
G00 Z5.00000 ( retract )

G00 X-17.28150 Y37.04278 ( rapid move to begin. )
G01 F300.00000
G01 Z-0.05000
G04 P0 ( dwell for no time -- G64 should not smooth over this point )
G01 F600.00000
G01 X-17.28150 Y37.04278
G01 X-17.28150 Y37.32502
G01 X-17.40466 Y37.32609
G01 X-17.54612 Y37.36216
G01 X-17.62267 Y37.41461
G01 X-17.70916 Y37.53221
G01 X-17.73801 Y37.63813
G01 X-17.73969 Y37.94603
G01 X-18.02221 Y37.94600
G01 X-18.04848 Y37.91976
G01 X-18.05099 Y37.43556
G01 X-18.04208 Y37.34501
G01 X-17.98086 Y37.19723
G01 X-17.86776 Y37.08413
G01 X-17.71995 Y37.02291
G01 X-17.30794 Y37.01633
G01 X-17.28150 Y37.04278
G04 P0 ( dwell for no time -- G64 should not smooth over this point )
G00 Z5.00000 ( retract )

G00 X-15.80398 Y39.16444 ( rapid move to begin. )
G01 F300.00000
G01 Z-0.05000
G04 P0 ( dwell for no time -- G64 should not smooth over this point )
G01 F600.00000
G01 X-15.80398 Y39.16444
G01 X-15.80650 Y38.68026
G01 X-15.83276 Y38.65400
G01 X-16.11528 Y38.65400
G01 X-16.11696 Y38.96190
G01 X-16.14582 Y39.06782
G01 X-16.23230 Y39.18542
G01 X-16.30886 Y39.23787
G01 X-16.45031 Y39.27394
G01 X-16.57347 Y39.27500
G01 X-16.57347 Y39.55725
G01 X-16.54703 Y39.58369
G01 X-16.22532 Y39.58600
G01 X-16.05808 Y39.55377
G01 X-15.98722 Y39.51590
G01 X-15.87411 Y39.40279
G01 X-15.81290 Y39.25499
G01 X-15.80398 Y39.16444
G04 P0 ( dwell for no time -- G64 should not smooth over this point )
G00 Z5.00000 ( retract )

G00 X-17.28150 Y39.27500 ( rapid move to begin. )
G01 F300.00000
G01 Z-0.05000
G04 P0 ( dwell for no time -- G64 should not smooth over this point )
G01 F600.00000
G01 X-17.28150 Y39.27500
G01 X-17.28150 Y39.55725
G01 X-17.30794 Y39.58369
G01 X-17.71993 Y39.57711
G01 X-17.86776 Y39.51590
G01 X-17.98086 Y39.40279
G01 X-18.04208 Y39.25501
G01 X-18.04848 Y38.68026
G01 X-18.02221 Y38.65400
G01 X-17.73969 Y38.65400
G01 X-17.73801 Y38.96190
G01 X-17.71427 Y39.05667
G01 X-17.67962 Y39.12149
G01 X-17.60413 Y39.20142
G01 X-17.50083 Y39.25664
G01 X-17.28150 Y39.27500
G04 P0 ( dwell for no time -- G64 should not smooth over this point )
G00 Z5.00000 ( retract )

G00 X-22.44448 Y34.08444 ( rapid move to begin. )
G01 F300.00000
G01 Z-0.05000
G04 P0 ( dwell for no time -- G64 should not smooth over this point )
G01 F600.00000
G01 X-22.44448 Y34.08444
G01 X-22.44700 Y33.60029
G01 X-22.47326 Y33.57403
G01 X-22.75578 Y33.57400
G01 X-22.75746 Y33.88190
G01 X-22.78632 Y33.98782
G01 X-22.87280 Y34.10542
G01 X-22.94936 Y34.15787
G01 X-23.09081 Y34.19394
G01 X-23.21400 Y34.19500
G01 X-23.21400 Y34.47722
G01 X-23.18753 Y34.50369
G01 X-22.86589 Y34.50600
G01 X-22.69858 Y34.47377
G01 X-22.56559 Y34.38489
G01 X-22.51461 Y34.32279
G01 X-22.45340 Y34.17499
G01 X-22.44448 Y34.08444
G04 P0 ( dwell for no time -- G64 should not smooth over this point )
G00 Z5.00000 ( retract )

G00 X-23.92197 Y34.19500 ( rapid move to begin. )
G01 F300.00000
G01 Z-0.05000
G04 P0 ( dwell for no time -- G64 should not smooth over this point )
G01 F600.00000
G01 X-23.92197 Y34.19500
G01 X-23.92197 Y34.47722
G01 X-23.94844 Y34.50369
G01 X-24.36048 Y34.49711
G01 X-24.50826 Y34.43590
G01 X-24.62136 Y34.32279
G01 X-24.68258 Y34.17499
G01 X-24.68898 Y33.60026
G01 X-24.66271 Y33.57403
G01 X-24.38019 Y33.57400
G01 X-24.37851 Y33.88190
G01 X-24.35477 Y33.97667
G01 X-24.32012 Y34.04149
G01 X-24.24463 Y34.12142
G01 X-24.14133 Y34.17664
G01 X-23.92197 Y34.19500
G04 P0 ( dwell for no time -- G64 should not smooth over this point )
G00 Z5.00000 ( retract )

G00 X-22.44448 Y32.35559 ( rapid move to begin. )
G01 F300.00000
G01 Z-0.05000
G04 P0 ( dwell for no time -- G64 should not smooth over this point )
G01 F600.00000
G01 X-22.44448 Y32.35559
G01 X-22.44700 Y32.83974
G01 X-22.47326 Y32.86600
G01 X-22.75578 Y32.86600
G01 X-22.75746 Y32.55813
G01 X-22.78632 Y32.45221
G01 X-22.87280 Y32.33461
G01 X-22.94936 Y32.28216
G01 X-23.09081 Y32.24609
G01 X-23.21400 Y32.24502
G01 X-23.21397 Y31.96278
G01 X-23.18753 Y31.93633
G01 X-22.86584 Y31.93402
G01 X-22.69861 Y31.96626
G01 X-22.56561 Y32.05511
G01 X-22.51459 Y32.11726
G01 X-22.45337 Y32.26506
G01 X-22.44448 Y32.35559
G04 P0 ( dwell for no time -- G64 should not smooth over this point )
G00 Z5.00000 ( retract )

G00 X-23.92197 Y31.96280 ( rapid move to begin. )
G01 F300.00000
G01 Z-0.05000
G04 P0 ( dwell for no time -- G64 should not smooth over this point )
G01 F600.00000
G01 X-23.92197 Y31.96280
G01 X-23.92197 Y32.24502
G01 X-24.04516 Y32.24609
G01 X-24.18662 Y32.28216
G01 X-24.26317 Y32.33461
G01 X-24.34966 Y32.45221
G01 X-24.37851 Y32.55813
G01 X-24.38019 Y32.86600
G01 X-24.66271 Y32.86600
G01 X-24.68898 Y32.83976
G01 X-24.69149 Y32.35554
G01 X-24.68258 Y32.26504
G01 X-24.62139 Y32.11726
G01 X-24.50826 Y32.00413
G01 X-24.36048 Y31.94291
G01 X-23.94844 Y31.93633
G01 X-23.92197 Y31.96280
G04 P0 ( dwell for no time -- G64 should not smooth over this point )
G00 Z5.00000 ( retract )

G00 X-23.92197 Y29.11500 ( rapid move to begin. )
G01 F300.00000
G01 Z-0.05000
G04 P0 ( dwell for no time -- G64 should not smooth over this point )
G01 F600.00000
G01 X-23.92197 Y29.11500
G01 X-23.92197 Y29.39722
G01 X-23.94844 Y29.42369
G01 X-24.36045 Y29.41711
G01 X-24.50823 Y29.35590
G01 X-24.62136 Y29.24277
G01 X-24.68258 Y29.09499
G01 X-24.68898 Y28.52026
G01 X-24.66271 Y28.49400
G01 X-24.38019 Y28.49400
G01 X-24.37851 Y28.80190
G01 X-24.35477 Y28.89667
G01 X-24.32012 Y28.96149
G01 X-24.24463 Y29.04142
G01 X-24.14133 Y29.09664
G01 X-23.92197 Y29.11500
G04 P0 ( dwell for no time -- G64 should not smooth over this point )
G00 Z5.00000 ( retract )

G00 X-23.92197 Y26.88280 ( rapid move to begin. )
G01 F300.00000
G01 Z-0.05000
G04 P0 ( dwell for no time -- G64 should not smooth over this point )
G01 F600.00000
G01 X-23.92197 Y26.88280
G01 X-23.94844 Y26.85633
G01 X-24.36045 Y26.86291
G01 X-24.50823 Y26.92410
G01 X-24.62136 Y27.03723
G01 X-24.68258 Y27.18504
G01 X-24.69149 Y27.27554
G01 X-24.68898 Y27.75976
G01 X-24.66271 Y27.78600
G01 X-24.38019 Y27.78603
G01 X-24.37851 Y27.47813
G01 X-24.34966 Y27.37221
G01 X-24.26317 Y27.25461
G01 X-24.18662 Y27.20216
G01 X-24.04516 Y27.16609
G01 X-23.92197 Y27.16502
G01 X-23.92197 Y26.88280
G04 P0 ( dwell for no time -- G64 should not smooth over this point )
G00 Z5.00000 ( retract )

G00 X-22.44448 Y29.00444 ( rapid move to begin. )
G01 F300.00000
G01 Z-0.05000
G04 P0 ( dwell for no time -- G64 should not smooth over this point )
G01 F600.00000
G01 X-22.44448 Y29.00444
G01 X-22.45337 Y29.09496
G01 X-22.51461 Y29.24279
G01 X-22.56561 Y29.30492
G01 X-22.69861 Y29.39379
G01 X-22.86577 Y29.42600
G01 X-23.18753 Y29.42369
G01 X-23.21400 Y29.39722
G01 X-23.21400 Y29.11500
G01 X-23.09081 Y29.11394
G01 X-22.94936 Y29.07787
G01 X-22.87280 Y29.02542
G01 X-22.78632 Y28.90782
G01 X-22.75746 Y28.80190
G01 X-22.75578 Y28.49400
G01 X-22.47326 Y28.49400
G01 X-22.44700 Y28.52026
G01 X-22.44448 Y29.00444
G04 P0 ( dwell for no time -- G64 should not smooth over this point )
G00 Z5.00000 ( retract )

G00 X-15.89748 Y28.76492 ( rapid move to begin. )
G01 F300.00000
G01 Z-0.05000
G04 P0 ( dwell for no time -- G64 should not smooth over this point )
G01 F600.00000
G01 X-15.89748 Y28.76492
G01 X-15.92082 Y28.88971
G01 X-15.97541 Y28.98513
G01 X-16.02737 Y29.03710
G01 X-16.12753 Y29.09298
G01 X-16.22298 Y29.11381
G01 X-17.19699 Y29.11381
G01 X-17.35851 Y29.06108
G01 X-17.42168 Y29.01074
G01 X-17.47330 Y28.94244
G01 X-17.51937 Y28.80904
G01 X-17.52201 Y28.64002
G01 X-19.78096 Y28.64002
G01 X-19.78249 Y28.80200
G01 X-19.83443 Y28.95105
G01 X-19.92815 Y29.05018
G01 X-20.02889 Y29.09994
G01 X-20.13049 Y29.11500
G01 X-21.05548 Y29.11500
G01 X-21.21162 Y29.07787
G01 X-21.34065 Y28.96735
G01 X-21.37976 Y28.89667
G01 X-21.40428 Y28.78960
G01 X-21.40549 Y27.51511
G01 X-21.38512 Y27.39969
G01 X-21.34649 Y27.32057
G01 X-21.29879 Y27.26632
G01 X-23.20310 Y25.36200
G01 X-42.94287 Y25.36200
G01 X-43.22590 Y25.64503
G01 X-43.18457 Y25.72101
G01 X-43.08767 Y26.01925
G01 X-43.05054 Y26.37246
G01 X-43.08330 Y26.68433
G01 X-43.18457 Y27.00302
G01 X-43.34985 Y27.29370
G01 X-43.57939 Y27.55105
G01 X-43.84121 Y27.74196
G01 X-44.15556 Y27.88371
G01 X-44.49321 Y27.95379
G01 X-44.82757 Y27.95161
G01 X-45.14441 Y27.88371
G01 X-45.45876 Y27.74196
G01 X-45.72800 Y27.54363
G01 X-45.95012 Y27.29370
G01 X-46.11167 Y27.01280
G01 X-46.21667 Y26.68433
G01 X-46.24944 Y26.35156
G01 X-46.21667 Y26.03970
G01 X-46.11540 Y25.72101
G01 X-45.95012 Y25.43033
G01 X-45.72058 Y25.17298
G01 X-45.45876 Y24.98207
G01 X-45.14441 Y24.84031
G01 X-44.80677 Y24.77023
G01 X-44.47240 Y24.77242
G01 X-44.15556 Y24.84031
G01 X-43.93362 Y24.93853
G01 X-43.43565 Y24.45212
G01 X-43.33210 Y24.39678
G01 X-43.15978 Y24.36249
G01 X-22.98619 Y24.36249
G01 X-22.79576 Y24.40427
G01 X-22.64242 Y24.50846
G01 X-20.23943 Y26.91145
G01 X-20.13524 Y27.06479
G01 X-20.10331 Y27.16632
G01 X-19.99656 Y27.19167
G01 X-19.89780 Y27.25461
G01 X-19.84085 Y27.31854
G01 X-19.80253 Y27.39504
G01 X-19.78249 Y27.47803
G01 X-19.78096 Y27.64003
G01 X-17.52250 Y27.64003
G01 X-17.51063 Y27.42776
G01 X-17.46484 Y27.32263
G01 X-17.37482 Y27.22984
G01 X-17.25028 Y27.17411
G01 X-16.23769 Y27.16550
G01 X-16.12278 Y27.18834
G01 X-16.03748 Y27.23599
G01 X-15.97541 Y27.29489
G01 X-15.93075 Y27.36794
G01 X-15.89946 Y27.47823
G01 X-15.89748 Y28.76492
G04 P0 ( dwell for no time -- G64 should not smooth over this point )
G00 Z5.00000 ( retract )

G00 X-15.89748 Y23.68492 ( rapid move to begin. )
G01 F300.00000
G01 Z-0.05000
G04 P0 ( dwell for no time -- G64 should not smooth over this point )
G01 F600.00000
G01 X-15.89748 Y23.68492
G01 X-15.91257 Y23.78662
G01 X-15.95648 Y23.87945
G01 X-16.02544 Y23.95558
G01 X-16.12753 Y24.01298
G01 X-16.22298 Y24.03381
G01 X-17.19699 Y24.03381
G01 X-17.35851 Y23.98108
G01 X-17.42168 Y23.93074
G01 X-17.47330 Y23.86244
G01 X-17.51937 Y23.72904
G01 X-17.52201 Y23.56000
G01 X-19.70748 Y23.56002
G01 X-19.71934 Y23.77227
G01 X-19.75922 Y23.86665
G01 X-19.81728 Y23.93909
G01 X-19.93278 Y24.01169
G01 X-20.05749 Y24.03500
G01 X-20.98248 Y24.03500
G01 X-21.08408 Y24.01994
G01 X-21.17489 Y23.97737
G01 X-21.23168 Y23.93074
G01 X-21.29117 Y23.84999
G01 X-21.32183 Y23.76747
G01 X-21.33250 Y23.21575
G01 X-22.99322 Y21.55502
G01 X-39.28897 Y21.55502
G01 X-39.39604 Y21.54304
G01 X-39.55834 Y21.47580
G01 X-39.64252 Y21.40859
G01 X-43.93362 Y17.11749
G01 X-44.15556 Y17.21571
G01 X-44.47240 Y17.28361
G01 X-44.82757 Y17.28361
G01 X-45.14441 Y17.21571
G01 X-45.44065 Y17.08440
G01 X-45.72800 Y16.87563
G01 X-45.95012 Y16.62570
G01 X-46.10692 Y16.35412
G01 X-46.21230 Y16.03677
G01 X-46.24944 Y15.70446
G01 X-46.21230 Y15.35125
G01 X-46.10692 Y15.03390
G01 X-45.95012 Y14.76233
G01 X-45.72800 Y14.51239
G01 X-45.45876 Y14.31407
G01 X-45.14441 Y14.17231
G01 X-44.80677 Y14.10223
G01 X-44.47240 Y14.10442
G01 X-44.14578 Y14.17607
G01 X-43.84121 Y14.31407
G01 X-43.58752 Y14.49840
G01 X-43.34985 Y14.76233
G01 X-43.18831 Y15.04323
G01 X-43.08330 Y15.37170
G01 X-43.05054 Y15.68356
G01 X-43.08330 Y16.01633
G01 X-43.18457 Y16.33502
G01 X-43.22590 Y16.41099
G01 X-39.08186 Y20.55503
G01 X-22.69828 Y20.56321
G01 X-22.58588 Y20.59729
G01 X-22.43254 Y20.70148
G01 X-21.04329 Y22.09074
G01 X-20.05749 Y22.08502
G01 X-19.93278 Y22.10834
G01 X-19.81728 Y22.18093
G01 X-19.75922 Y22.25337
G01 X-19.71934 Y22.34776
G01 X-19.70748 Y22.56003
G01 X-17.52250 Y22.56000
G01 X-17.51063 Y22.34776
G01 X-17.47076 Y22.25337
G01 X-17.41269 Y22.18093
G01 X-17.29720 Y22.10834
G01 X-17.17248 Y22.08502
G01 X-16.24749 Y22.08502
G01 X-16.13215 Y22.10537
G01 X-16.05303 Y22.14400
G01 X-15.97693 Y22.21299
G01 X-15.92412 Y22.30107
G01 X-15.89946 Y22.39823
G01 X-15.89748 Y23.68492
G04 P0 ( dwell for no time -- G64 should not smooth over this point )
G00 Z5.00000 ( retract )

G00 X-0.09997 Y0.32700 ( rapid move to begin. )
G01 F300.00000
G01 Z-0.05000
G04 P0 ( dwell for no time -- G64 should not smooth over this point )
G01 F600.00000
G01 X-0.09997 Y0.32700
G01 X-0.12070 Y0.23231
G01 X-0.16568 Y0.16772
G01 X-0.24234 Y0.11712
G01 X-0.32700 Y0.10000
G01 X-53.41300 Y0.10000
G01 X-53.50873 Y0.12149
G01 X-53.58930 Y0.18575
G01 X-53.62994 Y0.26396
G01 X-53.64000 Y0.32700
G01 X-53.64000 Y61.03300
G01 X-53.61097 Y61.14184
G01 X-53.55425 Y61.20933
G01 X-53.47604 Y61.24997
G01 X-53.41300 Y61.26003
G01 X-0.32700 Y61.26003
G01 X-0.24011 Y61.24273
G01 X-0.15989 Y61.18626
G01 X-0.11003 Y61.09607
G01 X-0.09997 Y61.03300
G01 X-0.09997 Y0.32700
G04 P0 ( dwell for no time -- G64 should not smooth over this point )
G00 Z5.00000 ( retract )

G00 X-15.76052 Y11.61956 ( rapid move to begin. )
G01 F300.00000
G01 Z-0.05000
G04 P0 ( dwell for no time -- G64 should not smooth over this point )
G01 F600.00000
G01 X-15.76052 Y11.61956
G01 X-15.78346 Y11.83764
G01 X-15.84688 Y12.02573
G01 X-15.94800 Y12.19655
G01 X-16.06692 Y12.32860
G01 X-16.20998 Y12.43526
G01 X-16.21000 Y17.00822
G01 X-16.10467 Y17.03586
G01 X-16.00728 Y17.10093
G01 X-15.92832 Y17.21221
G01 X-15.90276 Y17.29644
G01 X-15.90170 Y18.65381
G01 X-15.92832 Y18.74782
G01 X-16.00175 Y18.85422
G01 X-16.08249 Y18.91368
G01 X-16.17680 Y18.94779
G01 X-17.22128 Y18.95081
G01 X-17.31531 Y18.92417
G01 X-17.42168 Y18.85074
G01 X-17.48117 Y18.76999
G01 X-17.51526 Y18.67571
G01 X-17.52250 Y17.35501
G01 X-17.49489 Y17.21881
G01 X-17.43644 Y17.12570
G01 X-17.32862 Y17.04216
G01 X-17.20997 Y17.00746
G01 X-17.21000 Y12.43526
G01 X-17.35305 Y12.32860
G01 X-17.47197 Y12.19655
G01 X-17.57787 Y12.01641
G01 X-17.64086 Y11.81720
G01 X-17.65945 Y11.64046
G01 X-17.64086 Y11.44283
G01 X-17.57787 Y11.24362
G01 X-17.48424 Y11.08039
G01 X-17.33753 Y10.91743
G01 X-17.18498 Y10.80729
G01 X-17.01333 Y10.73026
G01 X-16.81963 Y10.68685
G01 X-16.62115 Y10.68466
G01 X-16.40665 Y10.73026
G01 X-16.23499 Y10.80729
G01 X-16.06692 Y10.93142
G01 X-15.94142 Y11.07161
G01 X-15.84211 Y11.24362
G01 X-15.78346 Y11.42238
G01 X-15.76052 Y11.61956
G04 P0 ( dwell for no time -- G64 should not smooth over this point )
G00 Z5.00000 ( retract )

G00 X-15.44897 Y8.25056 ( rapid move to begin. )
G01 F300.00000
G01 Z-0.05000
G04 P0 ( dwell for no time -- G64 should not smooth over this point )
G01 F600.00000
G01 X-15.44897 Y8.25056
G01 X-15.45788 Y8.16006
G01 X-15.51912 Y8.01223
G01 X-15.57010 Y7.95010
G01 X-15.70312 Y7.86122
G01 X-15.87056 Y7.82899
G01 X-16.32971 Y7.83151
G01 X-16.35600 Y7.85780
G01 X-16.35600 Y8.14001
G01 X-15.85999 Y8.14001
G01 X-15.80444 Y8.15685
G01 X-15.77683 Y8.18446
G01 X-15.75999 Y8.24001
G01 X-15.75999 Y8.73603
G01 X-15.47777 Y8.73603
G01 X-15.45148 Y8.70971
G01 X-15.44897 Y8.25056
G04 P0 ( dwell for no time -- G64 should not smooth over this point )
G00 Z5.00000 ( retract )

G00 X-17.06397 Y8.14001 ( rapid move to begin. )
G01 F300.00000
G01 Z-0.05000
G04 P0 ( dwell for no time -- G64 should not smooth over this point )
G01 F600.00000
G01 X-17.06397 Y8.14001
G01 X-17.55999 Y8.14001
G01 X-17.61554 Y8.15685
G01 X-17.64315 Y8.18446
G01 X-17.65999 Y8.24001
G01 X-17.65999 Y8.73603
G01 X-17.94220 Y8.73600
G01 X-17.96849 Y8.70974
G01 X-17.96209 Y8.16006
G01 X-17.90085 Y8.01225
G01 X-17.78775 Y7.89912
G01 X-17.63994 Y7.83791
G01 X-17.54944 Y7.82899
G01 X-17.09026 Y7.83151
G01 X-17.06400 Y7.85780
G01 X-17.06397 Y8.14001
G04 P0 ( dwell for no time -- G64 should not smooth over this point )
G00 Z5.00000 ( retract )

G00 X-28.14899 Y8.25053 ( rapid move to begin. )
G01 F300.00000
G01 Z-0.05000
G04 P0 ( dwell for no time -- G64 should not smooth over this point )
G01 F600.00000
G01 X-28.14899 Y8.25053
G01 X-28.15146 Y8.70974
G01 X-28.17774 Y8.73600
G01 X-28.45999 Y8.73603
G01 X-28.45999 Y8.24001
G01 X-28.47680 Y8.18446
G01 X-28.50441 Y8.15685
G01 X-28.55999 Y8.14001
G01 X-29.05597 Y8.14001
G01 X-29.05600 Y7.85780
G01 X-29.02971 Y7.83151
G01 X-28.57056 Y7.82899
G01 X-28.40307 Y7.86125
G01 X-28.33220 Y7.89912
G01 X-28.21907 Y8.01225
G01 X-28.15788 Y8.16003
G01 X-28.14899 Y8.25053
G04 P0 ( dwell for no time -- G64 should not smooth over this point )
G00 Z5.00000 ( retract )

G00 X-29.76400 Y7.85780 ( rapid move to begin. )
G01 F300.00000
G01 Z-0.05000
G04 P0 ( dwell for no time -- G64 should not smooth over this point )
G01 F600.00000
G01 X-29.76400 Y7.85780
G01 X-29.76400 Y8.14001
G01 X-30.25999 Y8.14001
G01 X-30.31554 Y8.15685
G01 X-30.34315 Y8.18446
G01 X-30.35999 Y8.24001
G01 X-30.35999 Y8.73603
G01 X-30.64220 Y8.73600
G01 X-30.66849 Y8.70974
G01 X-30.66207 Y8.16000
G01 X-30.63875 Y8.08312
G01 X-30.54990 Y7.95012
G01 X-30.48775 Y7.89912
G01 X-30.33994 Y7.83791
G01 X-29.79026 Y7.83151
G01 X-29.76400 Y7.85780
G04 P0 ( dwell for no time -- G64 should not smooth over this point )
G00 Z5.00000 ( retract )

G00 X-28.14899 Y9.92950 ( rapid move to begin. )
G01 F300.00000
G01 Z-0.05000
G04 P0 ( dwell for no time -- G64 should not smooth over this point )
G01 F600.00000
G01 X-28.14899 Y9.92950
G01 X-28.15788 Y10.02000
G01 X-28.21912 Y10.16780
G01 X-28.33220 Y10.28090
G01 X-28.54328 Y10.38601
G01 X-28.59662 Y10.46196
G01 X-28.61506 Y10.55291
G01 X-28.57581 Y10.67948
G01 X-28.43322 Y10.82751
G01 X-28.29517 Y11.03414
G01 X-28.20033 Y11.26307
G01 X-28.15199 Y11.50612
G01 X-28.15199 Y11.75390
G01 X-28.20033 Y11.99693
G01 X-28.29517 Y12.22588
G01 X-28.43322 Y12.43251
G01 X-28.56410 Y12.56957
G01 X-28.60200 Y12.69512
G01 X-28.60198 Y16.68153
G01 X-28.58795 Y16.76011
G01 X-28.55783 Y16.81457
G01 X-28.39875 Y16.98833
G01 X-28.33776 Y17.10246
G01 X-28.30020 Y17.22623
G01 X-28.28638 Y17.36623
G01 X-28.28638 Y18.59379
G01 X-28.30020 Y18.73380
G01 X-28.33776 Y18.85757
G01 X-28.39875 Y18.97169
G01 X-28.48082 Y19.07169
G01 X-28.58084 Y19.15376
G01 X-28.69491 Y19.21474
G01 X-28.81874 Y19.25231
G01 X-28.95864 Y19.26608
G01 X-29.86133 Y19.26608
G01 X-30.00121 Y19.25231
G01 X-30.12506 Y19.21474
G01 X-30.23911 Y19.15378
G01 X-30.33916 Y19.07167
G01 X-30.42125 Y18.97167
G01 X-30.48224 Y18.85757
G01 X-30.51978 Y18.73377
G01 X-30.53357 Y18.59392
G01 X-30.53357 Y17.36611
G01 X-30.51978 Y17.22625
G01 X-30.48224 Y17.10248
G01 X-30.42122 Y16.98836
G01 X-30.26214 Y16.81457
G01 X-30.23199 Y16.76011
G01 X-30.21797 Y16.68153
G01 X-30.21797 Y12.69512
G01 X-30.25587 Y12.56957
G01 X-30.38678 Y12.43249
G01 X-30.52478 Y12.22588
G01 X-30.61965 Y11.99695
G01 X-30.66799 Y11.75390
G01 X-30.66799 Y11.50612
G01 X-30.61965 Y11.26310
G01 X-30.52478 Y11.03414
G01 X-30.38676 Y10.82751
G01 X-30.24416 Y10.67948
G01 X-30.20489 Y10.55291
G01 X-30.21442 Y10.48652
G01 X-30.25869 Y10.40493
G01 X-30.33189 Y10.34791
G01 X-30.48775 Y10.28090
G01 X-30.54990 Y10.22990
G01 X-30.63875 Y10.09691
G01 X-30.67101 Y9.92944
G01 X-30.66849 Y9.47029
G01 X-30.64220 Y9.44403
G01 X-30.35999 Y9.44400
G01 X-30.35806 Y9.95952
G01 X-30.33070 Y10.01072
G01 X-30.27947 Y10.03808
G01 X-28.52169 Y10.03239
G01 X-28.47680 Y9.99556
G01 X-28.46192 Y9.95952
G01 X-28.45999 Y9.44400
G01 X-28.17774 Y9.44403
G01 X-28.15146 Y9.47029
G01 X-28.14899 Y9.92950
G04 P0 ( dwell for no time -- G64 should not smooth over this point )
G00 Z5.00000 ( retract )

G00 X-28.45999 Y11.63000 ( rapid move to begin. )
G01 F300.00000
G01 Z-0.05000
G04 P0 ( dwell for no time -- G64 should not smooth over this point )
G01 F600.00000
G01 X-28.45999 Y11.63000
G01 X-28.48343 Y11.83764
G01 X-28.54686 Y12.02573
G01 X-28.64800 Y12.19655
G01 X-28.76692 Y12.32860
G01 X-28.90998 Y12.43526
G01 X-28.90998 Y17.00822
G01 X-28.80467 Y17.03586
G01 X-28.70728 Y17.10093
G01 X-28.62832 Y17.21221
G01 X-28.60276 Y17.29644
G01 X-28.59748 Y18.60502
G01 X-28.60932 Y18.69227
G01 X-28.63997 Y18.77215
G01 X-28.70728 Y18.85909
G01 X-28.80467 Y18.92417
G01 X-28.91066 Y18.95305
G01 X-29.87236 Y18.95500
G01 X-29.95973 Y18.94317
G01 X-30.03962 Y18.91251
G01 X-30.12656 Y18.84523
G01 X-30.19166 Y18.74782
G01 X-30.22051 Y18.64180
G01 X-30.22247 Y17.35511
G01 X-30.19489 Y17.21881
G01 X-30.13644 Y17.12570
G01 X-30.02862 Y17.04216
G01 X-29.91000 Y17.00746
G01 X-29.91000 Y12.43526
G01 X-30.05303 Y12.32860
G01 X-30.17195 Y12.19655
G01 X-30.28160 Y12.00663
G01 X-30.33652 Y11.83764
G01 X-30.35945 Y11.64046
G01 X-30.34086 Y11.44283
G01 X-30.28160 Y11.25339
G01 X-30.18422 Y11.08039
G01 X-30.03751 Y10.91743
G01 X-29.87563 Y10.80254
G01 X-29.70355 Y10.72650
G01 X-29.51960 Y10.68685
G01 X-29.32115 Y10.68466
G01 X-29.10665 Y10.73026
G01 X-28.92621 Y10.81298
G01 X-28.76692 Y10.93142
G01 X-28.64142 Y11.07161
G01 X-28.53837 Y11.25339
G01 X-28.47909 Y11.44283
G01 X-28.45999 Y11.63000
G04 P0 ( dwell for no time -- G64 should not smooth over this point )
G00 Z5.00000 ( retract )

G00 X-35.05998 Y31.62800 ( rapid move to begin. )
G01 F300.00000
G01 Z-0.05000
G04 P0 ( dwell for no time -- G64 should not smooth over this point )
G01 F600.00000
G01 X-35.05998 Y31.62800
G01 X-35.05998 Y32.52800
G01 X-35.07684 Y32.58358
G01 X-35.14047 Y32.62610
G01 X-36.37951 Y32.62610
G01 X-36.41555 Y32.61116
G01 X-36.45238 Y32.56628
G01 X-36.46000 Y32.45000
G01 X-43.04998 Y32.45000
G01 X-43.04998 Y33.45002
G01 X-43.07926 Y33.52074
G01 X-43.14998 Y33.55002
G01 X-46.18825 Y33.54240
G01 X-46.23313 Y33.50557
G01 X-46.25000 Y33.45002
G01 X-46.25000 Y32.45002
G01 X-46.55000 Y32.45002
G01 X-46.55000 Y42.11800
G01 X-46.25000 Y42.11800
G01 X-46.25000 Y41.11800
G01 X-46.22071 Y41.04729
G01 X-46.15000 Y41.01800
G01 X-43.11173 Y41.02562
G01 X-43.06684 Y41.06245
G01 X-43.04998 Y41.11800
G01 X-43.04998 Y42.11800
G01 X-40.53909 Y42.11800
G01 X-39.66426 Y41.24386
G01 X-39.51821 Y41.14627
G01 X-39.40581 Y41.11219
G01 X-36.44610 Y41.10401
G01 X-36.41555 Y41.07086
G01 X-36.36000 Y41.05402
G01 X-35.15998 Y41.05402
G01 X-35.10443 Y41.07086
G01 X-35.06191 Y41.13451
G01 X-35.05998 Y42.05402
G01 X-35.08929 Y42.12473
G01 X-35.14047 Y42.15209
G01 X-36.36000 Y42.15402
G01 X-36.41555 Y42.13715
G01 X-36.44610 Y42.10401
G01 X-39.11087 Y42.10401
G01 X-39.98570 Y42.97815
G01 X-40.06261 Y43.03880
G01 X-40.22491 Y43.10601
G01 X-40.33197 Y43.11802
G01 X-43.04998 Y43.11802
G01 X-43.04998 Y44.11802
G01 X-43.07926 Y44.18874
G01 X-43.13047 Y44.21612
G01 X-46.18825 Y44.21040
G01 X-46.23313 Y44.17357
G01 X-46.25000 Y44.11802
G01 X-46.25000 Y43.11802
G01 X-46.55000 Y43.11802
G01 X-46.55000 Y51.62697
G01 X-43.35897 Y54.81800
G01 X-43.16689 Y54.81800
G01 X-43.12597 Y54.75148
G01 X-42.99966 Y54.61203
G01 X-42.84777 Y54.50098
G01 X-42.65755 Y54.41450
G01 X-42.45282 Y54.37266
G01 X-42.25435 Y54.37485
G01 X-42.06065 Y54.41826
G01 X-41.88021 Y54.50098
G01 X-41.73644 Y54.60543
G01 X-41.60200 Y54.75148
G01 X-41.49237 Y54.94139
G01 X-41.43312 Y55.13083
G01 X-41.41399 Y55.31800
G01 X-41.43746 Y55.52564
G01 X-41.50088 Y55.71373
G01 X-41.59542 Y55.87642
G01 X-41.73644 Y56.03060
G01 X-41.89832 Y56.14548
G01 X-42.07043 Y56.22153
G01 X-42.27515 Y56.26336
G01 X-42.47363 Y56.26118
G01 X-42.65755 Y56.22153
G01 X-42.82966 Y56.14548
G01 X-42.99153 Y56.03060
G01 X-43.12597 Y55.88455
G01 X-43.16689 Y55.81802
G01 X-43.65391 Y55.80985
G01 X-43.76628 Y55.77576
G01 X-43.91236 Y55.67815
G01 X-47.40354 Y52.18765
G01 X-47.47077 Y52.10345
G01 X-47.53801 Y51.94115
G01 X-47.54999 Y51.83409
G01 X-47.54999 Y42.71803
G01 X-47.53940 Y42.61800
G01 X-47.54999 Y42.51800
G01 X-47.54999 Y32.05003
G01 X-47.51522 Y31.86791
G01 X-47.45987 Y31.76435
G01 X-47.30354 Y31.59646
G01 X-47.21936 Y31.52922
G01 X-47.13209 Y31.48477
G01 X-46.95000 Y31.45000
G01 X-46.25000 Y31.45000
G01 X-46.25000 Y30.45000
G01 X-46.22071 Y30.37929
G01 X-46.15000 Y30.35000
G01 X-43.11173 Y30.35762
G01 X-43.06684 Y30.39445
G01 X-43.04998 Y30.45000
G01 X-43.04998 Y31.45000
G01 X-35.88799 Y31.45000
G01 X-35.78093 Y31.46202
G01 X-35.62091 Y31.52800
G01 X-35.14047 Y31.52993
G01 X-35.08929 Y31.55729
G01 X-35.05998 Y31.62800
G04 P0 ( dwell for no time -- G64 should not smooth over this point )
G00 Z5.00000 ( retract )

G00 X-42.71797 Y51.82801 ( rapid move to begin. )
G01 F300.00000
G01 Z-0.05000
G04 P0 ( dwell for no time -- G64 should not smooth over this point )
G01 F600.00000
G01 X-42.71797 Y51.82801
G01 X-42.71800 Y51.54580
G01 X-42.74429 Y51.51951
G01 X-43.20342 Y51.51699
G01 X-43.29397 Y51.52591
G01 X-43.44175 Y51.58712
G01 X-43.55488 Y51.70025
G01 X-43.61609 Y51.84803
G01 X-43.62249 Y52.39771
G01 X-43.59620 Y52.42400
G01 X-43.31399 Y52.42403
G01 X-43.31399 Y51.92801
G01 X-43.29715 Y51.87246
G01 X-43.26954 Y51.84485
G01 X-43.21399 Y51.82801
G01 X-42.71797 Y51.82801
G04 P0 ( dwell for no time -- G64 should not smooth over this point )
G00 Z5.00000 ( retract )

G00 X-41.10297 Y51.93853 ( rapid move to begin. )
G01 F300.00000
G01 Z-0.05000
G04 P0 ( dwell for no time -- G64 should not smooth over this point )
G01 F600.00000
G01 X-41.10297 Y51.93853
G01 X-41.10548 Y52.39774
G01 X-41.13177 Y52.42403
G01 X-41.41399 Y52.42403
G01 X-41.41399 Y51.92801
G01 X-41.43083 Y51.87246
G01 X-41.45844 Y51.84485
G01 X-41.51399 Y51.82801
G01 X-42.01000 Y51.82801
G01 X-42.01000 Y51.54580
G01 X-41.98369 Y51.51951
G01 X-41.52456 Y51.51699
G01 X-41.35712 Y51.54925
G01 X-41.22407 Y51.63812
G01 X-41.17310 Y51.70025
G01 X-41.11188 Y51.84803
G01 X-41.10297 Y51.93853
G04 P0 ( dwell for no time -- G64 should not smooth over this point )
G00 Z5.00000 ( retract )

G00 X-32.55797 Y52.21128 ( rapid move to begin. )
G01 F300.00000
G01 Z-0.05000
G04 P0 ( dwell for no time -- G64 should not smooth over this point )
G01 F600.00000
G01 X-32.55797 Y52.21128
G01 X-32.55797 Y52.50373
G01 X-32.73903 Y52.58671
G01 X-32.91566 Y52.71775
G01 X-33.06117 Y52.88265
G01 X-33.16549 Y53.06441
G01 X-33.20557 Y53.18600
G01 X-33.49097 Y53.18600
G01 X-33.51182 Y53.14541
G01 X-33.45310 Y52.95915
G01 X-33.32505 Y52.72573
G01 X-33.15391 Y52.52174
G01 X-32.94626 Y52.35506
G01 X-32.70695 Y52.23048
G01 X-32.59399 Y52.19370
G01 X-32.55797 Y52.21128
G04 P0 ( dwell for no time -- G64 should not smooth over this point )
G00 Z5.00000 ( retract )

G00 X-32.55797 Y54.57629 ( rapid move to begin. )
G01 F300.00000
G01 Z-0.05000
G04 P0 ( dwell for no time -- G64 should not smooth over this point )
G01 F600.00000
G01 X-32.55797 Y54.57629
G01 X-32.55797 Y54.86875
G01 X-32.59399 Y54.88633
G01 X-32.70692 Y54.84955
G01 X-32.94624 Y54.72496
G01 X-33.15388 Y54.55831
G01 X-33.32503 Y54.35432
G01 X-33.45310 Y54.12087
G01 X-33.51182 Y53.93461
G01 X-33.49097 Y53.89400
G01 X-33.20557 Y53.89400
G01 X-33.16549 Y54.01561
G01 X-33.06117 Y54.19738
G01 X-32.91566 Y54.36227
G01 X-32.73903 Y54.49331
G01 X-32.55797 Y54.57629
G04 P0 ( dwell for no time -- G64 should not smooth over this point )
G00 Z5.00000 ( retract )

G00 X-28.61147 Y53.49250 ( rapid move to begin. )
G01 F300.00000
G01 Z-0.05000
G04 P0 ( dwell for no time -- G64 should not smooth over this point )
G01 F600.00000
G01 X-28.61147 Y53.49250
G01 X-28.63721 Y53.26357
G01 X-28.70246 Y53.06441
G01 X-28.80680 Y52.88265
G01 X-28.96786 Y52.70376
G01 X-29.16398 Y52.56873
G01 X-29.16398 Y49.60000
G01 X-29.17599 Y49.49294
G01 X-29.24320 Y49.33064
G01 X-29.31043 Y49.24646
G01 X-34.00643 Y44.55046
G01 X-34.09061 Y44.48322
G01 X-34.17788 Y44.43877
G01 X-34.35998 Y44.40400
G01 X-35.07387 Y44.40400
G01 X-35.10443 Y44.37088
G01 X-35.15998 Y44.35401
G01 X-36.36000 Y44.35401
G01 X-36.43069 Y44.38330
G01 X-36.46000 Y44.45401
G01 X-36.45807 Y45.37352
G01 X-36.43069 Y45.42473
G01 X-36.39825 Y45.44639
G01 X-36.26000 Y45.45401
G01 X-36.26000 Y45.94690
G01 X-37.51110 Y47.19803
G01 X-43.13875 Y47.19800
G01 X-43.18831 Y47.04723
G01 X-43.34985 Y46.76633
G01 X-43.58752 Y46.50240
G01 X-43.84121 Y46.31807
G01 X-44.14578 Y46.18007
G01 X-44.49321 Y46.10623
G01 X-44.82757 Y46.10842
G01 X-45.13430 Y46.17362
G01 X-45.45876 Y46.31807
G01 X-45.72058 Y46.50898
G01 X-45.93783 Y46.74941
G01 X-46.11540 Y47.05701
G01 X-46.21667 Y47.37570
G01 X-46.25000 Y47.69800
G01 X-46.21667 Y48.02033
G01 X-46.11167 Y48.34880
G01 X-45.93783 Y48.64661
G01 X-45.72058 Y48.88705
G01 X-45.45876 Y49.07796
G01 X-45.15419 Y49.21595
G01 X-44.82757 Y49.28761
G01 X-44.47240 Y49.28761
G01 X-44.15556 Y49.21971
G01 X-43.85932 Y49.08840
G01 X-43.57939 Y48.88705
G01 X-43.34985 Y48.62970
G01 X-43.18831 Y48.34880
G01 X-43.13875 Y48.19800
G01 X-37.30399 Y48.19802
G01 X-37.12190 Y48.16325
G01 X-37.03462 Y48.11880
G01 X-36.95042 Y48.05157
G01 X-35.35009 Y46.43968
G01 X-35.29475 Y46.33610
G01 X-35.26046 Y46.16381
G01 X-35.25998 Y45.45401
G01 X-35.14047 Y45.45208
G01 X-35.07387 Y45.40402
G01 X-34.56709 Y45.40402
G01 X-30.16400 Y49.80711
G01 X-30.16400 Y52.56873
G01 X-30.36011 Y52.70376
G01 X-30.52117 Y52.88265
G01 X-30.62925 Y53.07419
G01 X-30.69349 Y53.27368
G01 X-30.71594 Y53.48206
G01 X-30.69077 Y53.81645
G01 X-30.62549 Y54.01561
G01 X-30.50888 Y54.21429
G01 X-30.37563 Y54.36227
G01 X-30.19903 Y54.49331
G01 X-29.98922 Y54.58851
G01 X-29.78435 Y54.63261
G01 X-29.56443 Y54.63479
G01 X-29.33875 Y54.58851
G01 X-29.14706 Y54.50375
G01 X-28.96786 Y54.37627
G01 X-28.80680 Y54.19738
G01 X-28.70246 Y54.01561
G01 X-28.63721 Y53.81645
G01 X-28.61147 Y53.49250
G04 P0 ( dwell for no time -- G64 should not smooth over this point )
G00 Z5.00000 ( retract )

G00 X-17.31800 Y52.21128 ( rapid move to begin. )
G01 F300.00000
G01 Z-0.05000
G04 P0 ( dwell for no time -- G64 should not smooth over this point )
G01 F600.00000
G01 X-17.31800 Y52.21128
G01 X-17.31800 Y52.50373
G01 X-17.49903 Y52.58671
G01 X-17.67566 Y52.71775
G01 X-17.82117 Y52.88265
G01 X-17.92074 Y53.05509
G01 X-17.96557 Y53.18600
G01 X-18.25097 Y53.18603
G01 X-18.27182 Y53.14541
G01 X-18.21310 Y52.95915
G01 X-18.08505 Y52.72573
G01 X-17.91388 Y52.52171
G01 X-17.70626 Y52.35506
G01 X-17.46695 Y52.23048
G01 X-17.35399 Y52.19370
G01 X-17.31800 Y52.21128
G04 P0 ( dwell for no time -- G64 should not smooth over this point )
G00 Z5.00000 ( retract )

G00 X-17.31800 Y54.57629 ( rapid move to begin. )
G01 F300.00000
G01 Z-0.05000
G04 P0 ( dwell for no time -- G64 should not smooth over this point )
G01 F600.00000
G01 X-17.31800 Y54.57629
G01 X-17.31800 Y54.86875
G01 X-17.35399 Y54.88633
G01 X-17.46692 Y54.84955
G01 X-17.70626 Y54.72496
G01 X-17.91388 Y54.55831
G01 X-18.08505 Y54.35430
G01 X-18.21310 Y54.12087
G01 X-18.27182 Y53.93461
G01 X-18.25097 Y53.89400
G01 X-17.96557 Y53.89400
G01 X-17.92074 Y54.02494
G01 X-17.82117 Y54.19738
G01 X-17.67566 Y54.36227
G01 X-17.49024 Y54.49900
G01 X-17.31800 Y54.57629
G04 P0 ( dwell for no time -- G64 should not smooth over this point )
G00 Z5.00000 ( retract )

G00 X-13.37147 Y53.49250 ( rapid move to begin. )
G01 F300.00000
G01 Z-0.05000
G04 P0 ( dwell for no time -- G64 should not smooth over this point )
G01 F600.00000
G01 X-13.37147 Y53.49250
G01 X-13.39449 Y53.80634
G01 X-13.46723 Y54.02494
G01 X-13.57249 Y54.20617
G01 X-13.71232 Y54.36227
G01 X-13.90706 Y54.50375
G01 X-14.09875 Y54.58851
G01 X-14.30363 Y54.63261
G01 X-14.54435 Y54.63261
G01 X-14.75900 Y54.58475
G01 X-14.94092 Y54.50375
G01 X-15.13566 Y54.36227
G01 X-15.27548 Y54.20617
G01 X-15.38925 Y54.00584
G01 X-15.45349 Y53.80634
G01 X-15.47594 Y53.48206
G01 X-15.45349 Y53.27368
G01 X-15.38925 Y53.07419
G01 X-15.28117 Y52.88265
G01 X-15.12011 Y52.70376
G01 X-14.92397 Y52.56873
G01 X-14.92400 Y51.94712
G01 X-16.89509 Y49.97602
G01 X-24.83800 Y49.97602
G01 X-25.02009 Y49.94125
G01 X-25.18428 Y49.83615
G01 X-28.74754 Y46.27357
G01 X-28.85173 Y46.12023
G01 X-28.88198 Y46.02709
G01 X-28.89400 Y45.92000
G01 X-28.89400 Y41.55509
G01 X-34.56711 Y35.87801
G01 X-35.07387 Y35.87801
G01 X-35.10443 Y35.91116
G01 X-35.15998 Y35.92802
G01 X-36.36000 Y35.92802
G01 X-36.41555 Y35.91116
G01 X-36.44610 Y35.87801
G01 X-38.21887 Y35.87801
G01 X-39.72443 Y37.38357
G01 X-39.87777 Y37.48776
G01 X-39.97091 Y37.51801
G01 X-40.07800 Y37.53002
G01 X-43.13875 Y37.53000
G01 X-43.18831 Y37.68080
G01 X-43.34985 Y37.96170
G01 X-43.58752 Y38.22563
G01 X-43.84121 Y38.40996
G01 X-44.14578 Y38.54795
G01 X-44.49321 Y38.62179
G01 X-44.82757 Y38.61961
G01 X-45.14441 Y38.55171
G01 X-45.44065 Y38.42040
G01 X-45.72800 Y38.21163
G01 X-45.95012 Y37.96170
G01 X-46.11540 Y37.67102
G01 X-46.21667 Y37.35233
G01 X-46.24944 Y37.04046
G01 X-46.21667 Y36.70770
G01 X-46.10692 Y36.36990
G01 X-45.93783 Y36.08141
G01 X-45.72058 Y35.84098
G01 X-45.45876 Y35.65007
G01 X-45.13430 Y35.50562
G01 X-44.82757 Y35.44042
G01 X-44.49321 Y35.43823
G01 X-44.14578 Y35.51207
G01 X-43.84121 Y35.65007
G01 X-43.58752 Y35.83440
G01 X-43.34985 Y36.09833
G01 X-43.18831 Y36.37923
G01 X-43.13875 Y36.53000
G01 X-40.28509 Y36.53000
G01 X-38.77955 Y35.02447
G01 X-38.69535 Y34.95723
G01 X-38.53304 Y34.89000
G01 X-38.42598 Y34.87801
G01 X-36.44610 Y34.87801
G01 X-36.41555 Y34.84486
G01 X-36.36000 Y34.82802
G01 X-35.15998 Y34.82802
G01 X-35.10443 Y34.84486
G01 X-35.07387 Y34.87801
G01 X-34.35998 Y34.87801
G01 X-34.25292 Y34.89000
G01 X-34.15977 Y34.92028
G01 X-34.00641 Y35.02449
G01 X-27.98407 Y41.06235
G01 X-27.92872 Y41.16591
G01 X-27.89398 Y41.34800
G01 X-27.89398 Y45.71291
G01 X-24.63089 Y48.97600
G01 X-16.68798 Y48.97600
G01 X-16.50589 Y49.01077
G01 X-16.41861 Y49.05522
G01 X-16.33444 Y49.12246
G01 X-14.01409 Y51.45436
G01 X-13.95875 Y51.55791
G01 X-13.92446 Y51.73020
G01 X-13.92398 Y52.56873
G01 X-13.72786 Y52.70376
G01 X-13.56680 Y52.88265
G01 X-13.45872 Y53.07419
G01 X-13.39721 Y53.26357
G01 X-13.37147 Y53.49250

G04 P0 ( dwell for no time -- G64 should not smooth over this point )
G00 Z10.000 ( retract )

M5 ( Spindle off. )
G04 P1.000000
M9 ( Coolant off. )
M2 ( Program end. )

